;FLAVOR:Marlin
;TIME:6750
;Filament used: 4.55234m
;Layer height: 0.2
;MINX:56.31
;MINY:75.2
;MINZ:0.3
;MAXX:109.298
;MAXY:140.299
;MAXZ:25.175
;Generated with Cura_SteamEngine 4.11.0
M82 ;absolute extrusion mode
G21                                        ; metric values 
G90                                        ; absolute positioning 
M82                                        ; set extruder to absolute mode 
M107                                       ; start with the fan off 
M140 S60           ; Start heating the bed 
G4 S60                                     ; wait 1 minute 
M104 S210         ; start heating the hot end 
M190 S60           ; wait for bed 
M109 S210         ; wait for hotend 
M300 S1000 P500                            ; BEEP heating done 
G28 X0 Y10 Z0                              ; move X/Y to min endstops 
M420 S1                                    ; Enable leveling 
M420 Z2.0                                  ; Set leveling fading height to 2 mm 
G0 Z0.15                                   ; lift nozzle a bit 
G92 E0                                     ; zero the extruded length 
G1 X50 E25 F500                            ; Extrude 25mm of filament in a 5cm line. 
G92 E0                                     ; zero the extruded length again 
G1 E-2 F500                                ; Retract a little 
G1 X120 F4000                              ; Quickly wipe away from the filament line`
G92 E0
G92 E0
G1 F1500 E-6
;LAYER_COUNT:125
;LAYER:0
M106 S76.5
M205 X10 Y10
G1 F600 Z0.375
G0 F6000 X71.471 Y100.617 Z0.375
M205 X8 Y8
;TYPE:SKIRT
G1 F600 Z0.3
G1 F1500 E0
G1 F1200 X71.699 Y100.646 E0.01147
G1 X71.872 Y101.503 E0.05508
G1 X71.898 Y103.237 E0.1416
G1 X71.881 Y105.557 E0.25735
G1 X71.916 Y107.646 E0.36159
G1 X71.968 Y108.689 E0.41369
G1 X71.814 Y109.163 E0.43855
G1 X71.659 Y109.276 E0.44812
G1 X71.431 Y109.247 E0.45959
G1 X71.276 Y108.482 E0.49853
G1 X71.434 Y106.263 E0.60952
G1 X71.44 Y106.107 E0.61731
G1 X71.44 Y103.844 E0.73021
G1 X71.437 Y103.738 E0.7355
G1 X71.345 Y101.825 E0.83105
G1 X71.214 Y101.044 E0.87056
G1 X71.316 Y100.73 E0.88703
G1 X71.471 Y100.617 E0.8966
M205 X10 Y10
G0 F6000 X71.341 Y100.217
M205 X8 Y8
G1 F1200 X71.789 Y100.217 E0.91895
G1 X72.06 Y100.414 E0.93566
G1 X72.271 Y101.461 E0.98895
G1 X72.298 Y103.231 E1.07727
G1 X72.281 Y105.55 E1.19296
G1 X72.318 Y107.701 E1.30029
G1 X72.371 Y108.745 E1.35245
G1 X72.154 Y109.41 E1.38734
G1 X71.789 Y109.676 E1.40988
G1 X71.341 Y109.676 E1.43223
G1 X71.07 Y109.479 E1.44894
G1 X70.873 Y108.508 E1.49837
G1 X71.035 Y106.235 E1.61206
G1 X71.04 Y106.107 E1.61845
G1 X71.04 Y103.844 E1.73135
G1 X71.038 Y103.758 E1.73565
G1 X70.946 Y101.845 E1.8312
G1 X70.913 Y101.579 E1.84457
G1 X70.801 Y101.018 E1.87311
G1 X70.976 Y100.483 E1.90119
G1 X71.341 Y100.217 E1.92372
M205 X10 Y10
G0 F6000 X71.212 Y99.817
M205 X8 Y8
G1 F1200 X71.918 Y99.817 E1.95895
G1 X72.421 Y100.183 E1.98998
G1 X72.671 Y101.418 E2.05285
G1 X72.698 Y103.194 E2.14146
G1 X72.681 Y105.543 E2.25866
G1 X72.718 Y107.68 E2.36529
G1 X72.775 Y108.796 E2.42104
G1 X72.494 Y109.657 E2.46622
G1 X71.918 Y110.076 E2.50176
G1 X71.212 Y110.076 E2.53698
G1 X70.709 Y109.71 E2.56802
G1 X70.471 Y108.534 E2.62788
G1 X70.636 Y106.206 E2.74431
G1 X70.64 Y106.107 E2.74926
G1 X70.64 Y103.844 E2.86216
G1 X70.546 Y101.864 E2.96105
G1 X70.521 Y101.657 E2.97145
G1 X70.389 Y100.994 E3.00518
G1 X70.636 Y100.236 E3.04495
G1 X71.212 Y99.817 E3.08049
M205 X10 Y10
G0 F6000 X71.082 Y99.417
M205 X8 Y8
G1 F1200 X72.048 Y99.417 E3.12868
G1 X72.782 Y99.951 E3.17397
G1 X73.07 Y101.376 E3.2465
G1 X73.098 Y103.197 E3.33736
G1 X73.081 Y105.537 E3.45411
G1 X73.117 Y107.66 E3.56004
G1 X73.178 Y108.85 E3.61949
G1 X72.834 Y109.904 E3.6748
G1 X72.048 Y110.476 E3.7233
G1 X71.082 Y110.476 E3.77149
G1 X70.348 Y109.942 E3.81678
G1 X70.068 Y108.559 E3.88717
G1 X70.237 Y106.178 E4.00626
G1 X70.24 Y106.107 E4.00981
G1 X70.239 Y103.796 E4.1251
G1 X70.147 Y101.883 E4.22065
G1 X70.129 Y101.735 E4.22809
G1 X69.976 Y100.97 E4.26701
G1 X70.296 Y99.989 E4.31849
G1 X71.082 Y99.417 E4.36699
M205 X10 Y10
G0 F6000 X70.951 Y99.017
M205 X8 Y8
G1 F1200 X72.179 Y99.017 E4.42826
G1 X73.143 Y99.719 E4.48775
G1 X73.47 Y101.334 E4.56996
G1 X73.498 Y103.2 E4.66307
G1 X73.481 Y105.53 E4.77931
G1 X73.517 Y107.64 E4.8846
G1 X73.581 Y108.904 E4.94774
G1 X73.175 Y110.151 E5.01317
G1 X72.179 Y110.876 E5.07463
G1 X70.951 Y110.876 E5.13589
G1 X69.987 Y110.174 E5.19539
G1 X69.665 Y108.586 E5.27623
G1 X69.84 Y106.107 E5.40021
G1 X69.839 Y103.815 E5.51456
G1 X69.747 Y101.902 E5.61011
G1 X69.736 Y101.814 E5.61453
G1 X69.563 Y100.946 E5.65869
G1 X69.955 Y99.742 E5.72186
G1 X70.951 Y99.017 E5.78332
M205 X10 Y10
G0 F6000 X70.822 Y98.617
M205 X8 Y8
G1 F1200 X72.308 Y98.617 E5.85746
G1 X73.504 Y99.487 E5.93125
G1 X73.869 Y101.292 E6.02312
G1 X73.898 Y103.203 E6.11847
G1 X73.881 Y105.523 E6.23422
G1 X73.916 Y107.619 E6.3388
G1 X73.984 Y108.958 E6.40569
G1 X73.515 Y110.398 E6.48125
G1 X72.308 Y111.276 E6.55571
G1 X70.822 Y111.276 E6.62985
G1 X69.626 Y110.405 E6.70366
G1 X69.262 Y108.611 E6.79499
G1 X69.44 Y106.107 E6.92023
G1 X69.44 Y103.834 E7.03363
G1 X69.348 Y101.921 E7.12918
G1 X69.344 Y101.892 E7.13064
G1 X69.15 Y100.921 E7.18004
G1 X69.615 Y99.495 E7.25487
G1 X70.822 Y98.617 E7.32934
M205 X10 Y10
G1 F1500 E1.32934
G1 F600 Z0.375
;MESH:?????????????????????.stl
G0 F6000 X76.065 Y132.697 Z0.375
M205 X8 Y8
;TYPE:WALL-INNER
G1 F600 Z0.3
G1 F1500 E7.32934
G1 F1200 X76.065 Y77.303 E10.09296
G1 X57.446 Y77.303 E11.02186
G1 X57.446 Y132.697 E13.78548
G1 X76.065 Y132.697 E14.71439
M205 X10 Y10
G0 F6000 X75.665 Y132.297
M205 X8 Y8
;TYPE:WALL-OUTER
G1 F1200 X75.665 Y77.703 E17.43809
G1 X57.846 Y77.703 E18.32708
G1 X57.846 Y132.297 E21.05079
G1 X75.665 Y132.297 E21.93978
M205 X10 Y10
G0 F6000 X75.665 Y132.097
G0 X76.105 Y132.097
G1 F1500 E15.93978
G1 F600 Z0.375
G0 F6000 X75.683 Y76.903 Z0.375
M205 X8 Y8
;TYPE:WALL-INNER
G1 F600 Z0.3
G1 F1500 E21.93978
G1 F1200 X57.829 Y76.903 E22.83052
G1 X57.482 Y76.903 E22.84784
G1 X57.425 Y76.903 E22.85068
G1 X57.482 Y76.791 E22.85352
G1 X57.727 Y76.546 E22.86506
G1 X57.904 Y76.37 E22.87751
G1 X58.433 Y76.102 E22.9071
G1 X59.078 Y76 E22.93968
G1 X74.439 Y76.001 E23.70604
G1 X75.083 Y76.103 E23.73857
G1 X75.612 Y76.373 E23.7682
G1 X75.785 Y76.547 E23.78044
G1 X76.028 Y76.792 E23.79766
G1 X76.085 Y76.903 E23.80388
G1 X76.028 Y76.903
G1 X75.683 Y76.903 E23.81536
M205 X10 Y10
G1 F1500 E17.81536
G1 F600 Z0.375
G0 F6000 X75.079 Y133.898 Z0.375
M205 X8 Y8
G1 F600 Z0.3
G1 F1500 E23.81536
G1 F1200 X74.432 Y134 E23.84804
G1 X59.071 Y133.999 E24.6144
G1 X58.427 Y133.897 E24.64693
G1 X57.902 Y133.629 E24.67634
G1 X57.726 Y133.453 E24.68876
G1 X57.481 Y133.207 E24.70608
G1 X57.425 Y133.097 E24.71223
G1 X57.481 Y133.097
G1 X57.829 Y133.097 E24.7238
G1 X75.683 Y133.097 E25.61454
G1 X76.027 Y133.097 E25.6317
G1 X76.085 Y133.097 E25.63459
G1 X76.027 Y133.211 E25.63749
G1 X75.784 Y133.454 E25.64896
G1 X75.606 Y133.632 E25.66152
G1 X75.079 Y133.898 E25.69097
M205 X10 Y10
G0 F6000 X75.203 Y134.283
M205 X8 Y8
G1 F1200 X74.462 Y134.4 E25.7284
G1 X59.04 Y134.399 E26.49781
G1 X58.302 Y134.282 E26.53508
G1 X57.663 Y133.956 E26.57087
G1 X57.153 Y133.445 E26.60689
G1 X56.826 Y132.799 E26.64302
G1 X56.71 Y132.066 E26.68004
G1 X56.711 Y77.926 E29.3811
G1 X56.828 Y77.192 E29.41818
G1 X57.155 Y76.552 E29.45403
G1 X57.666 Y76.042 E29.49005
G1 X58.308 Y75.717 E29.52595
G1 X59.047 Y75.6 E29.56328
G1 X74.47 Y75.601 E30.33274
G1 X75.208 Y75.718 E30.37001
G1 X75.852 Y76.047 E30.40609
G1 X76.357 Y76.555 E30.44183
G1 X76.685 Y77.203 E30.47806
G1 X76.8 Y77.933 E30.51493
G1 X76.799 Y132.076 E33.21614
G1 X76.684 Y132.802 E33.25281
G1 X76.355 Y133.449 E33.28902
G1 X75.845 Y133.959 E33.32501
G1 X75.203 Y134.283 E33.36088
M205 X10 Y10
G0 F6000 X75.327 Y134.668
M205 X8 Y8
;TYPE:WALL-OUTER
G1 F1200 X74.493 Y134.8 E33.40301
G1 X59.008 Y134.799 E34.17556
G1 X58.177 Y134.667 E34.21754
G1 X57.423 Y134.283 E34.25975
G1 X56.825 Y133.682 E34.30205
G1 X56.441 Y132.925 E34.3444
G1 X56.31 Y132.097 E34.38622
G1 X56.311 Y77.894 E37.09042
G1 X56.443 Y77.067 E37.1322
G1 X56.828 Y76.313 E37.17444
G1 X57.428 Y75.714 E37.21674
G1 X58.183 Y75.332 E37.25895
G1 X59.016 Y75.2 E37.30103
G1 X74.502 Y75.201 E38.07363
G1 X75.333 Y75.333 E38.11561
G1 X76.092 Y75.721 E38.15813
G1 X76.686 Y76.318 E38.20015
G1 X77.07 Y77.077 E38.24259
G1 X77.2 Y77.903 E38.2843
G1 X77.199 Y132.106 E40.9885
G1 X77.069 Y132.928 E41.03002
G1 X76.683 Y133.687 E41.0725
G1 X76.083 Y134.286 E41.1148
G1 X75.327 Y134.668 E41.15706
M205 X10 Y10
G0 F6000 X75.13 Y134.699
G0 X75.063 Y134.265
G0 X74.957 Y133.522
M205 X8 Y8
;TYPE:SKIN
G1 F1200 X74.397 Y133.61 E41.18534
G1 X59.106 Y133.609 E41.94821
G1 X58.545 Y133.52 E41.97655
G1 X58.48 Y133.487 E41.98019
G1 X75.026 Y133.487 E42.80567
G1 X74.957 Y133.522 E42.80953
M205 X10 Y10
G1 F1500 E36.80953
G1 F600 Z0.375
G0 F6000 X75.03 Y76.513 Z0.375
M205 X8 Y8
G1 F600 Z0.3
G1 F1500 E42.80953
G1 F1200 X58.485 Y76.513 E43.63497
G1 X58.552 Y76.479 E43.63871
G1 X59.113 Y76.39 E43.66705
G1 X74.404 Y76.391 E44.42992
G1 X74.965 Y76.48 E44.45826
G1 X75.03 Y76.513 E44.4619
M205 X10 Y10
G0 F6000 X76.386 Y77.234
M205 X8 Y8
;TYPE:SKIN
G1 F1200 X76.413 Y77.544 E44.47524
G1 X76.432 Y80.957 E44.62152
G1 X76.432 Y131.869 E46.80367
G1 X76.303 Y132.872 E46.84701
M205 X10 Y10
G1 F1500 E40.84701
G1 F600 Z0.375
G0 F6000 X57.113 Y132.632 Z0.375
M205 X8 Y8
G1 F600 Z0.3
G1 F1500 E46.84701
G1 F1200 X57.086 Y132.322 E46.86046
G1 X57.078 Y126.374 E47.11764
G1 X57.078 Y78.291 E49.19662
G1 X57.159 Y77.241 E49.24216
M205 X10 Y10
G1 F1500 E43.24216
G1 F600 Z0.375
;MESH:????????????.stl
G0 F6000 X100.677 Y100.128 Z0.375
M205 X8 Y8
;TYPE:WALL-INNER
G1 F600 Z0.3
G1 F1500 E49.24216
G1 F1200 X100.121 Y100.154 E49.26993
G1 X99.599 Y100.145 E49.29597
G1 X99.061 Y100.103 E49.3229
G1 X98.542 Y100.028 E49.34906
G1 X97.973 Y99.909 E49.37806
G1 X97.482 Y99.773 E49.40348
G1 X96.972 Y99.597 E49.43039
G1 X96.466 Y99.384 E49.45778
G1 X95.995 Y99.151 E49.484
G1 X95.531 Y98.883 E49.51073
G1 X95.064 Y98.572 E49.53873
G1 X94.641 Y98.251 E49.56522
G1 X94.235 Y97.898 E49.59206
G1 X93.844 Y97.514 E49.6194
G1 X93.502 Y97.131 E49.64502
G1 X93.153 Y96.688 E49.67315
G1 X92.853 Y96.253 E49.69952
G1 X92.571 Y95.78 E49.72699
G1 X92.329 Y95.311 E49.75332
G1 X92.117 Y94.825 E49.77977
G1 X91.924 Y94.298 E49.80777
G1 X91.774 Y93.782 E49.83458
G1 X91.654 Y93.258 E49.8614
G1 X91.572 Y92.734 E49.88786
G1 X91.522 Y92.211 E49.91407
G1 X91.502 Y91.662 E49.94148
G1 X91.522 Y91.087 E49.97019
G1 X91.572 Y90.574 E49.9959
G1 X91.654 Y90.053 E50.02221
G1 X91.774 Y89.529 E50.04903
G1 X91.924 Y89.013 E50.07584
G1 X92.117 Y88.481 E50.10408
G1 X92.33 Y87.997 E50.13046
G1 X92.571 Y87.531 E50.15663
G1 X92.854 Y87.056 E50.18422
G1 X93.156 Y86.619 E50.21072
G1 X93.489 Y86.195 E50.23762
G1 X93.853 Y85.788 E50.26486
G1 X94.237 Y85.411 E50.2917
G1 X94.644 Y85.057 E50.31862
G1 X95.064 Y84.739 E50.3449
G1 X95.531 Y84.428 E50.37289
G1 X95.996 Y84.16 E50.39967
G1 X96.466 Y83.927 E50.42584
G1 X96.972 Y83.714 E50.45323
G1 X97.482 Y83.538 E50.48014
G1 X97.973 Y83.402 E50.50556
G1 X98.542 Y83.283 E50.53457
G1 X99.061 Y83.208 E50.56073
G1 X99.599 Y83.166 E50.58765
G1 X100.121 Y83.157 E50.6137
G1 X100.677 Y83.183 E50.64147
G1 X101.221 Y83.244 E50.66878
G1 X101.752 Y83.338 E50.69568
G1 X102.271 Y83.463 E50.72231
G1 X102.786 Y83.623 E50.74922
G1 X103.27 Y83.809 E50.77509
G1 X103.779 Y84.042 E50.80301
G1 X104.248 Y84.292 E50.82953
G1 X104.707 Y84.577 E50.85648
G1 X105.176 Y84.911 E50.88521
G1 X105.55 Y85.216 E50.90929
G1 X105.961 Y85.595 E50.93718
G1 X106.357 Y86.011 E50.96583
G1 X106.677 Y86.392 E50.99066
G1 X106.992 Y86.819 E51.01713
G1 X107.304 Y87.305 E51.04594
G1 X107.556 Y87.758 E51.0718
G1 X107.787 Y88.244 E51.09865
G1 X107.982 Y88.729 E51.12473
G1 X108.162 Y89.273 E51.15332
G1 X108.289 Y89.765 E51.17867
G1 X108.397 Y90.323 E51.20702
G1 X108.465 Y90.866 E51.23432
G1 X108.498 Y91.388 E51.26042
G1 X108.498 Y91.923 E51.28711
G1 X108.465 Y92.446 E51.31326
G1 X108.397 Y92.989 E51.34056
G1 X108.291 Y93.54 E51.36855
G1 X108.161 Y94.044 E51.39452
G1 X107.989 Y94.563 E51.4218
G1 X107.792 Y95.056 E51.44828
G1 X107.554 Y95.557 E51.47596
G1 X107.304 Y96.005 E51.50155
G1 X106.998 Y96.482 E51.52982
G1 X106.68 Y96.915 E51.55663
G1 X106.357 Y97.3 E51.5817
G1 X105.964 Y97.712 E51.6101
G1 X105.55 Y98.095 E51.63824
G1 X105.176 Y98.4 E51.66232
G1 X104.695 Y98.743 E51.69179
G1 X104.27 Y99.006 E51.71673
G1 X103.772 Y99.273 E51.74492
G1 X103.267 Y99.503 E51.7726
G1 X102.799 Y99.683 E51.79762
G1 X102.266 Y99.849 E51.82547
G1 X101.749 Y99.973 E51.852
G1 X101.221 Y100.067 E51.87875
G1 X100.677 Y100.128 E51.90606
M205 X10 Y10
G0 F6000 X100.708 Y100.527
M205 X8 Y8
G1 F1200 X100.134 Y100.554 E51.93473
G1 X99.576 Y100.545 E51.96257
G1 X99.02 Y100.501 E51.9904
G1 X98.466 Y100.421 E52.01832
G1 X97.891 Y100.301 E52.04763
G1 X97.361 Y100.154 E52.07507
G1 X96.822 Y99.968 E52.10352
G1 X96.305 Y99.751 E52.13149
G1 X95.796 Y99.498 E52.15985
G1 X95.324 Y99.226 E52.18703
G1 X94.838 Y98.902 E52.21617
G1 X94.381 Y98.556 E52.24476
G1 X93.972 Y98.2 E52.27182
G1 X93.548 Y97.783 E52.30149
G1 X93.195 Y97.388 E52.32792
G1 X92.835 Y96.931 E52.35694
G1 X92.51 Y96.46 E52.38549
G1 X92.227 Y95.985 E52.41307
G1 X91.964 Y95.476 E52.44166
G1 X91.746 Y94.977 E52.46883
G1 X91.544 Y94.425 E52.49815
G1 X91.386 Y93.882 E52.52636
G1 X91.262 Y93.336 E52.5543
G1 X91.175 Y92.785 E52.58213
G1 X91.122 Y92.23 E52.60994
G1 X91.102 Y91.662 E52.6383
G1 X91.122 Y91.073 E52.6677
G1 X91.175 Y90.525 E52.69517
G1 X91.262 Y89.975 E52.72295
G1 X91.386 Y89.429 E52.75088
G1 X91.544 Y88.886 E52.7791
G1 X91.744 Y88.337 E52.80825
G1 X91.969 Y87.825 E52.83615
G1 X92.227 Y87.326 E52.86417
G1 X92.51 Y86.851 E52.89176
G1 X92.841 Y86.372 E52.92081
G1 X93.18 Y85.94 E52.9482
G1 X93.555 Y85.521 E52.97626
G1 X93.573 Y85.504 E52.97749
G1 X93.974 Y85.109 E53.00557
G1 X94.381 Y84.755 E53.03249
G1 X94.838 Y84.409 E53.06108
G1 X95.324 Y84.085 E53.09022
G1 X95.796 Y83.813 E53.1174
G1 X95.818 Y83.803 E53.11861
G1 X96.305 Y83.56 E53.14576
G1 X96.822 Y83.343 E53.17373
G1 X97.361 Y83.157 E53.20218
G1 X97.375 Y83.154 E53.2029
G1 X97.865 Y83.018 E53.22827
G1 X97.891 Y83.01 E53.22962
G1 X98.466 Y82.89 E53.25893
G1 X99.02 Y82.81 E53.28685
G1 X99.576 Y82.766 E53.31468
G1 X100.134 Y82.757 E53.34252
G1 X100.708 Y82.784 E53.37119
G1 X101.274 Y82.847 E53.3996
G1 X101.83 Y82.946 E53.42778
G1 X102.375 Y83.077 E53.45574
G1 X102.917 Y83.245 E53.48405
G1 X103.429 Y83.442 E53.51142
G1 X103.955 Y83.682 E53.54027
G1 X104.451 Y83.947 E53.56832
G1 X104.928 Y84.243 E53.59633
G1 X105.408 Y84.585 E53.62573
G1 X105.816 Y84.917 E53.65198
G1 X106.251 Y85.319 E53.68153
G1 X106.647 Y85.735 E53.71018
G1 X106.662 Y85.754 E53.71139
G1 X106.993 Y86.147 E53.73702
G1 X107.329 Y86.603 E53.76528
G1 X107.641 Y87.089 E53.7941
G1 X107.909 Y87.57 E53.82157
G1 X107.916 Y87.586 E53.82244
G1 X108.147 Y88.072 E53.84928
G1 X108.158 Y88.095 E53.85056
G1 X108.352 Y88.58 E53.87662
G1 X108.362 Y88.603 E53.87787
G1 X108.542 Y89.147 E53.90645
G1 X108.548 Y89.173 E53.90779
G1 X108.675 Y89.664 E53.93309
G1 X108.682 Y89.689 E53.93438
G1 X108.792 Y90.258 E53.9633
G1 X108.862 Y90.816 E53.99135
G1 X108.863 Y90.84 E53.99255
G1 X108.896 Y91.362 E54.01865
G1 X108.898 Y91.378 E54.01945
G1 X108.898 Y91.933 E54.04714
G1 X108.862 Y92.496 E54.07529
G1 X108.792 Y93.054 E54.10334
G1 X108.683 Y93.619 E54.13205
G1 X108.543 Y94.161 E54.15998
G1 X108.366 Y94.697 E54.18814
G1 X108.158 Y95.217 E54.21608
G1 X107.91 Y95.739 E54.24491
G1 X107.641 Y96.221 E54.27245
G1 X107.332 Y96.703 E54.30102
G1 X106.996 Y97.16 E54.32932
G1 X106.647 Y97.576 E54.35641
G1 X106.251 Y97.992 E54.38506
G1 X105.816 Y98.394 E54.41461
G1 X105.408 Y98.726 E54.44085
G1 X104.923 Y99.072 E54.47058
G1 X104.459 Y99.359 E54.4978
G1 X103.955 Y99.629 E54.52632
G1 X103.431 Y99.868 E54.55505
G1 X103.411 Y99.875 E54.55611
G1 X102.943 Y100.055 E54.58113
G1 X102.921 Y100.064 E54.58231
G1 X102.371 Y100.235 E54.61105
G1 X101.831 Y100.365 E54.63876
G1 X101.274 Y100.464 E54.66698
G1 X100.708 Y100.527 E54.6954
M205 X10 Y10
G0 F6000 X100.739 Y100.926
M205 X8 Y8
;TYPE:WALL-OUTER
