;FLAVOR:Marlin
;TIME:5648
;Filament used: 3.6922m
;Layer height: 0.2
;MINX:73.2
;MINY:92.295
;MINZ:0.3
;MAXX:136.8
;MAXY:116.8
;MAXZ:25.975
;Generated with Cura_SteamEngine 4.11.0
M82 ;absolute extrusion mode
G21                                        ; metric values 
G90                                        ; absolute positioning 
M82                                        ; set extruder to absolute mode 
M107                                       ; start with the fan off 
M140 S60           ; Start heating the bed 
G4 S60                                     ; wait 1 minute 
M104 S210         ; start heating the hot end 
M190 S60           ; wait for bed 
M109 S210         ; wait for hotend 
M300 S1000 P500                            ; BEEP heating done 
G28 X0 Y10 Z0                              ; move X/Y to min endstops 
M420 S1                                    ; Enable leveling 
M420 Z2.0                                  ; Set leveling fading height to 2 mm 
G0 Z0.15                                   ; lift nozzle a bit 
G92 E0                                     ; zero the extruded length 
G1 X50 E25 F500                            ; Extrude 25mm of filament in a 5cm line. 
G92 E0                                     ; zero the extruded length again 
G1 E-2 F500                                ; Retract a little 
G1 X120 F4000                              ; Quickly wipe away from the filament line`
G92 E0
G92 E0
G1 F1500 E-6
;LAYER_COUNT:130
;LAYER:0
M106 S76.5
M205 X10 Y10
G1 F600 Z0.375
G0 F6000 X100.758 Y98.669 Z0.375
M205 X8 Y8
;TYPE:SKIRT
G1 F600 Z0.3
G1 F1500 E0
G1 F1200 X100.955 Y98.525 E0.01217
G1 X101.852 Y98.525 E0.05693
G1 X104.318 Y98.64 E0.18009
G1 X106.863 Y98.723 E0.30713
G1 X107.07 Y98.72 E0.31746
G1 X109.517 Y98.57 E0.43977
G1 X109.653 Y98.669 E0.44816
G1 X109.729 Y98.9 E0.46029
G1 X109.653 Y99.131 E0.47242
G1 X109.509 Y99.236 E0.48131
G1 X108.081 Y99.161 E0.55266
G1 X105.848 Y99.078 E0.66414
G1 X105.696 Y99.077 E0.67172
G1 X103.081 Y99.161 E0.80225
G1 X100.917 Y99.247 E0.9103
G1 X100.758 Y99.131 E0.92012
G1 X100.682 Y98.9 E0.93225
G1 X100.758 Y98.669 E0.94438
M205 X10 Y10
G0 F6000 X100.416 Y98.424
M205 X8 Y8
G1 F1200 X100.826 Y98.125 E0.9697
G1 X101.871 Y98.125 E1.02183
G1 X104.331 Y98.24 E1.1447
G1 X106.876 Y98.323 E1.27174
G1 X107.045 Y98.321 E1.28017
G1 X109.635 Y98.162 E1.40963
G1 X109.995 Y98.424 E1.43184
G1 X110.15 Y98.9 E1.45682
G1 X109.995 Y99.376 E1.48179
G1 X109.628 Y99.644 E1.50446
G1 X108.066 Y99.56 E1.5825
G1 X105.833 Y99.477 E1.69399
G1 X105.709 Y99.477 E1.70017
G1 X103.097 Y99.56 E1.83055
G1 X100.794 Y99.651 E1.94554
G1 X100.416 Y99.376 E1.96886
G1 X100.261 Y98.9 E1.99383
G1 X100.416 Y98.424 E2.01881
M205 X10 Y10
G0 F6000 X100.076 Y98.176
M205 X8 Y8
G1 F1200 X100.696 Y97.725 E2.05706
G1 X101.89 Y97.725 E2.11663
G1 X104.344 Y97.84 E2.23919
G1 X106.889 Y97.923 E2.36623
G1 X107.021 Y97.921 E2.37282
G1 X109.753 Y97.753 E2.50937
G1 X110.335 Y98.176 E2.54527
G1 X110.571 Y98.9 E2.58326
G1 X110.335 Y99.624 E2.62125
G1 X109.749 Y100.05 E2.6574
G1 X108.051 Y99.96 E2.74223
G1 X105.818 Y99.877 E2.85371
G1 X105.721 Y99.877 E2.85855
G1 X103.113 Y99.96 E2.98873
G1 X100.671 Y100.057 E3.11066
G1 X100.076 Y99.624 E3.14737
G1 X99.84 Y98.9 E3.18536
G1 X100.076 Y98.176 E3.22335
M205 X10 Y10
G0 F6000 X99.737 Y97.928
M205 X8 Y8
G1 F1200 X100.565 Y97.325 E3.27445
G1 X101.886 Y97.325 E3.34036
G1 X104.357 Y97.44 E3.46377
G1 X106.902 Y97.523 E3.59081
G1 X106.996 Y97.522 E3.5955
G1 X109.873 Y97.345 E3.73931
G1 X110.674 Y97.928 E3.78873
G1 X110.991 Y98.9 E3.83974
G1 X110.674 Y99.872 E3.89075
G1 X109.87 Y100.457 E3.94035
G1 X108.036 Y100.36 E4.03198
G1 X105.803 Y100.277 E4.14346
G1 X105.734 Y100.277 E4.1469
G1 X103.128 Y100.36 E4.27698
G1 X100.548 Y100.462 E4.4058
G1 X99.737 Y99.872 E4.45583
G1 X99.42 Y98.9 E4.50684
G1 X99.737 Y97.928 E4.55785
M205 X10 Y10
G0 F6000 X99.396 Y97.682
M205 X8 Y8
G1 F1200 X100.435 Y96.925 E4.62198
G1 X101.905 Y96.925 E4.69532
G1 X104.37 Y97.041 E4.81844
G1 X106.915 Y97.124 E4.94548
G1 X106.972 Y97.123 E4.94832
G1 X109.993 Y96.937 E5.09932
G1 X111.015 Y97.682 E5.16242
G1 X111.412 Y98.9 E5.22633
G1 X111.015 Y100.118 E5.29025
G1 X109.99 Y100.865 E5.35352
G1 X108.021 Y100.759 E5.4519
G1 X105.788 Y100.676 E5.56338
G1 X103.144 Y100.759 E5.69536
G1 X100.424 Y100.867 E5.83116
G1 X99.396 Y100.118 E5.89462
G1 X98.999 Y98.9 E5.95853
G1 X99.396 Y97.682 E6.02245
M205 X10 Y10
G0 F6000 X99.056 Y97.435
M205 X8 Y8
G1 F1200 X100.306 Y96.525 E6.09958
G1 X101.903 Y96.525 E6.17926
G1 X104.383 Y96.641 E6.30312
G1 X106.947 Y96.724 E6.43111
G1 X110.111 Y96.529 E6.58926
G1 X111.355 Y97.435 E6.66604
G1 X111.833 Y98.9 E6.74292
G1 X111.355 Y100.365 E6.8198
G1 X110.11 Y101.271 E6.89662
G1 X108.006 Y101.159 E7.00174
G1 X105.76 Y101.076 E7.11387
G1 X103.16 Y101.159 E7.24365
G1 X100.302 Y101.272 E7.38634
G1 X99.056 Y100.365 E7.46323
G1 X98.578 Y98.9 E7.54011
G1 X99.056 Y97.435 E7.617
M205 X10 Y10
G1 F1500 E1.617
G1 F600 Z0.375
;MESH:??????????????????????????????.stl
G0 F6000 X133.849 Y114.839 Z0.375
M205 X8 Y8
;TYPE:WALL-INNER
G1 F600 Z0.3
G1 F1500 E7.617
G1 F1200 X134.413 Y113.992 E7.66776
G1 X134.599 Y113.056 E7.71537
G1 X134.6 Y96.944 E8.51921
G1 X134.406 Y95.993 E8.56763
G1 X133.839 Y95.151 E8.61827
G1 X132.992 Y94.587 E8.66904
G1 X132.049 Y94.4 E8.717
G1 X77.944 Y94.4 E11.41631
G1 X76.993 Y94.594 E11.46473
G1 X76.151 Y95.161 E11.51538
G1 X75.587 Y96.008 E11.56615
G1 X75.4 Y96.951 E11.61411
G1 X75.4 Y113.056 E12.41759
G1 X75.594 Y114.007 E12.46601
G1 X76.161 Y114.849 E12.51666
G1 X77.008 Y115.413 E12.56743
G1 X77.951 Y115.6 E12.61539
G1 X132.056 Y115.6 E15.3147
G1 X133.007 Y115.406 E15.36312
G1 X133.849 Y114.839 E15.41377
M205 X10 Y10
G0 F6000 X133.56 Y114.551
M205 X8 Y8
;TYPE:WALL-OUTER
G1 F1200 X134.036 Y113.836 E15.45662
G1 X134.199 Y113.017 E15.49828
G1 X134.2 Y96.984 E16.29817
G1 X134.03 Y96.151 E16.34058
G1 X133.551 Y95.44 E16.38336
G1 X132.836 Y94.964 E16.42621
G1 X132.01 Y94.8 E16.46822
G1 X77.984 Y94.8 E19.16359
G1 X77.151 Y94.97 E19.20601
G1 X76.44 Y95.449 E19.24878
G1 X75.964 Y96.164 E19.29163
G1 X75.8 Y96.99 E19.33364
G1 X75.8 Y113.016 E20.13318
G1 X75.97 Y113.849 E20.1756
G1 X76.449 Y114.56 E20.21837
G1 X77.164 Y115.036 E20.26122
G1 X77.99 Y115.2 E20.30324
G1 X132.016 Y115.2 E22.99861
G1 X132.849 Y115.03 E23.04102
G1 X133.56 Y114.551 E23.08379
M205 X10 Y10
G0 F6000 X133.67 Y114.385
G0 X134.036 Y114.63
G1 F1500 E17.08379
G1 F600 Z0.375
G0 F6000 X134.909 Y116 Z0.375
M205 X8 Y8
;TYPE:WALL-INNER
G1 F600 Z0.3
G1 F1500 E23.08379
G1 F1200 X133.461 Y116 E23.15603
G1 X133.165 Y116 E23.1708
G1 X132.096 Y116 E23.22413
G1 X133.165 Y115.782 E23.2396
G1 X133.41 Y115.617 E23.25114
G1 X134.138 Y115.127 E23.29492
G1 X134.79 Y114.148 E23.3536
G1 X134.999 Y113.095 E23.40716
G1 X135 Y96.904 E24.21493
G1 X134.782 Y95.835 E24.26936
G1 X134.127 Y94.862 E24.32788
G1 X133.407 Y94.382 E24.37105
G1 X133.148 Y94.21 E24.38656
G1 X132.088 Y94 E24.4013
G1 X77.904 Y94
G1 X76.835 Y94.218 E24.45573
G1 X76.59 Y94.383 E24.47047
G1 X75.862 Y94.873 E24.51425
G1 X75.21 Y95.852 E24.57293
G1 X75 Y96.912 E24.62684
G1 X75 Y113.096 E25.43427
G1 X75.218 Y114.165 E25.4887
G1 X75.873 Y115.138 E25.54721
G1 X76.593 Y115.618 E25.59039
G1 X76.852 Y115.79 E25.6059
G1 X77.912 Y116 E25.65981
G1 X76.852 Y116 E25.67354
G1 X76.54 Y116 E25.68559
G1 X75.082 Y116 E25.75833
G1 X74.621 Y115.908 E25.78178
G1 X74.301 Y115.692 E25.80104
G1 X74.089 Y115.37 E25.82027
G1 X74 Y114.911 E25.8436
G1 X74 Y95.078 E26.83307
G1 X74.092 Y94.625 E26.85613
G1 X74.31 Y94.301 E26.87562
G1 X74.63 Y94.09 E26.89474
G1 X75.091 Y94 E26.91817
G1 X76.539 Y94 E26.99041
G1 X76.835 Y94 E27.00199
G1 X77.904 Y94 E27.05532
G1 X132.088 Y94 E29.75857
G1 X133.148 Y94 E29.7723
G1 X133.46 Y94 E29.78435
G1 X134.918 Y94 E29.85709
G1 X135.375 Y94.092 E29.88034
G1 X135.699 Y94.31 E29.89983
G1 X135.91 Y94.63 E29.91895
G1 X136 Y95.091 E29.94238
G1 X136 Y114.918 E30.93156
G1 X135.908 Y115.375 E30.95481
G1 X135.69 Y115.699 E30.9743
G1 X135.37 Y115.91 E30.99342
G1 X134.909 Y116 E31.01685
M205 X10 Y10
G0 F6000 X134.95 Y116.4
M205 X8 Y8
G1 F1200 X75.043 Y116.4 E34.00562
G1 X74.464 Y116.284 E34.03509
G1 X74.011 Y115.978 E34.06236
G1 X73.711 Y115.523 E34.08955
G1 X73.6 Y114.951 E34.11862
G1 X73.6 Y95.039 E35.11203
G1 X73.716 Y94.466 E35.1412
G1 X74.022 Y94.012 E35.16851
G1 X74.477 Y93.712 E35.1957
G1 X75.05 Y93.6 E35.22483
G1 X134.957 Y93.6 E38.2136
G1 X135.534 Y93.716 E38.24297
G1 X135.988 Y94.022 E38.27028
G1 X136.288 Y94.477 E38.29747
G1 X136.4 Y95.05 E38.3266
G1 X136.4 Y114.957 E39.31976
G1 X136.284 Y115.534 E39.34913
G1 X135.978 Y115.988 E39.37644
G1 X135.523 Y116.288 E39.40363
G1 X134.95 Y116.4 E39.43276
M205 X10 Y10
G0 F6000 X134.991 Y116.8
M205 X8 Y8
;TYPE:WALL-OUTER
G1 F1200 X75.004 Y116.8 E42.42552
G1 X74.307 Y116.66 E42.46099
G1 X73.721 Y116.264 E42.49628
G1 X73.333 Y115.676 E42.53142
G1 X73.2 Y114.991 E42.56624
G1 X73.2 Y95 E43.56359
G1 X73.34 Y94.307 E43.59886
G1 X73.735 Y93.722 E43.63408
G1 X74.322 Y93.334 E43.66918
G1 X75.009 Y93.2 E43.7041
G1 X134.996 Y93.2 E46.69687
G1 X135.693 Y93.34 E46.73234
G1 X136.278 Y93.735 E46.76755
G1 X136.666 Y94.322 E46.80266
G1 X136.8 Y95.009 E46.83758
G1 X136.8 Y114.996 E47.83473
G1 X136.66 Y115.693 E47.8702
G1 X136.265 Y116.278 E47.90542
G1 X135.678 Y116.666 E47.94052
G1 X134.991 Y116.8 E47.97544
M205 X10 Y10
G0 F6000 X134.791 Y116.8
G0 X134.791 Y116.36
G0 X134.87 Y115.61
M205 X8 Y8
;TYPE:SKIN
G1 F1200 X134.12 Y115.61 E48.01286
G1 X134.42 Y115.408 E48.0309
G1 X135.157 Y114.3 E48.09729
G1 X135.389 Y113.134 E48.15661
G1 X135.39 Y96.865 E48.96827
G1 X135.149 Y95.681 E49.02855
G1 X134.408 Y94.58 E49.09476
G1 X134.122 Y94.39 E49.11189
G1 X134.881 Y94.39 E49.14976
G1 X135.22 Y94.458 E49.16701
G1 X135.542 Y94.78 E49.18973
G1 X135.61 Y95.13 E49.20752
G1 X135.61 Y114.881 E50.1929
G1 X135.542 Y115.22 E50.21015
G1 X135.22 Y115.542 E50.23287
G1 X134.87 Y115.61 E50.25065
M205 X10 Y10
G0 F6000 X134.863 Y115.064
M205 X8 Y8
G1 F1200 X135.152 Y115.353 E50.27104
M205 X10 Y10
G0 F6000 X135.396 Y115.031
M205 X8 Y8
G1 F1200 X135.089 Y114.724 E50.2927
M205 X10 Y10
G0 F6000 X135.314 Y114.384
M205 X8 Y8
G1 F1200 X135.429 Y114.498 E50.30078
M205 X10 Y10
G1 F1500 E44.30078
G1 F600 Z0.375
G0 F6000 X135.429 Y95.831 Z0.375
M205 X8 Y8
G1 F600 Z0.3
G1 F1500 E50.30078
G1 F1200 X135.344 Y95.746 E50.30678
M205 X10 Y10
G0 F6000 X135.429 Y95.265
M205 X8 Y8
G1 F1200 X134.733 Y94.569 E50.35589
G1 X134.663 Y94.499
M205 X10 Y10
G1 F1500 E44.35589
G1 F600 Z0.375
G0 F6000 X75.88 Y94.39 Z0.375
M205 X8 Y8
G1 F600 Z0.3
G1 F1500 E50.35589
G1 F1200 X75.58 Y94.592 E50.37393
G1 X74.843 Y95.7 E50.44032
G1 X74.61 Y96.873 E50.49999
G1 X74.61 Y113.135 E51.3113
G1 X74.851 Y114.319 E51.37158
G1 X75.592 Y115.42 E51.43779
G1 X75.878 Y115.61 E51.45492
G1 X75.118 Y115.61 E51.49284
G1 X74.777 Y115.542 E51.51019
G1 X74.457 Y115.218 E51.53291
G1 X74.39 Y114.874 E51.55039
G1 X74.39 Y95.116 E52.53612
G1 X74.458 Y94.78 E52.55322
G1 X74.78 Y94.458 E52.57594
G1 X75.13 Y94.39 E52.59373
G1 X75.88 Y94.39 E52.63115
M205 X10 Y10
G0 F6000 X75.135 Y94.934
M205 X8 Y8
G1 F1200 X74.845 Y94.644 E52.65161
M205 X10 Y10
G0 F6000 X74.603 Y94.967
M205 X8 Y8
G1 F1200 X74.91 Y95.274 E52.67327
M205 X10 Y10
G0 F6000 X74.57 Y95.5
M205 X8 Y8
G1 F1200 X74.684 Y95.614 E52.68131
M205 X10 Y10
G1 F1500 E46.68131
G1 F600 Z0.375
G0 F6000 X74.569 Y114.167 Z0.375
M205 X8 Y8
G1 F600 Z0.3
G1 F1500 E52.68131
G1 F1200 X74.654 Y114.252 E52.68731
M205 X10 Y10
G0 F6000 X74.569 Y114.733
M205 X8 Y8
G1 F1200 X75.265 Y115.428 E52.73638
G1 X75.335 Y115.498
M205 X10 Y10
G1 F1500 E46.73638
G1 F600 Z0.375
G0 F6000 X78.197 Y116.098 Z0.375
M205 X8 Y8
;TYPE:SKIN
G1 F600 Z0.3
G1 F1500 E52.73638
G1 F1200 X78.381 Y115.999 E52.74707
G1 X131.555 Y115.999 E55.46683
G1 X131.94 Y115.818 E55.48859
M205 X10 Y10
G1 F1500 E49.48859
G1 F600 Z0.375
G0 F6000 X131.617 Y93.999 Z0.375
M205 X8 Y8
G1 F600 Z0.3
G1 F1500 E55.48859
G1 F1200 X131.334 Y93.999 E55.50313
G1 X78.442 Y93.999 E58.22093
G1 X78.058 Y94.18 E58.24274
M205 X10 Y10
G1 F1500 E52.24274
G1 F600 Z0.375
G0 F6000 X131.695 Y93.794 Z0.375
M104 S200
M205 X8 Y8
G1 F600 Z0.3
G1 F1500 E58.24274
G1 F1200 X131.906 Y94.005 E58.25018
M205 X10 Y10
G1 F1500 E52.25018
G1 F600 Z0.375
;MESH:NONMESH
G0 F6000 X98.903 Y97.445 Z0.375
;TIME_ELAPSED:69.033836
;LAYER:1
M106 S127.5
G0 X98.903 Y97.445 Z0.575
M205 X8 Y8
;TYPE:SUPPORT
G1 F600 Z0.5
G1 F1500 E58.25018
G1 F1350 X100.144 Y96.542 E58.30123
G1 X101.731 Y96.542 E58.35401
G1 X104.209 Y96.658 E58.43652
G1 X107.11 Y96.74 E58.53305
G1 X110.273 Y96.546 E58.63845
G1 X111.508 Y97.445 E58.68926
G1 X111.982 Y98.9 E58.74015
G1 X111.508 Y100.355 E58.79105
G1 X110.272 Y101.254 E58.84188
G1 X108.181 Y101.142 E58.91153
G1 X105.861 Y101.06 E58.98874
G1 X102.989 Y101.142 E59.0843
G1 X100.14 Y101.255 E59.17914
G1 X98.903 Y100.355 E59.23002
G1 X98.429 Y98.9 E59.28091
G1 X98.903 Y97.445 E59.33181
M205 X10 Y10
G1 F1500 E53.33181
G1 F600 Z0.575
;MESH:??????????????????????????????.stl
G0 F6000 X133.844 Y114.844 Z0.575
M205 X8 Y8
;TYPE:WALL-INNER
G1 F600 Z0.5
G1 F1500 E59.33181
G1 F1350 X134.411 Y113.998 E59.36568
G1 X134.6 Y113.05 E59.39783
G1 X134.599 Y96.941 E59.93362
G1 X134.411 Y96.001 E59.9655
G1 X133.844 Y95.156 E59.99935
G1 X132.998 Y94.589 E60.03322
G1 X132.05 Y94.4 E60.06537
G1 X77.941 Y94.401 E61.86505
G1 X77.001 Y94.589 E61.89693
G1 X76.156 Y95.156 E61.93078
G1 X75.589 Y96.002 E61.96465
G1 X75.4 Y96.95 E61.9968
G1 X75.401 Y113.059 E62.53259
G1 X75.589 Y113.999 E62.56447
G1 X76.156 Y114.844 E62.59832
G1 X77.002 Y115.411 E62.63219
G1 X77.95 Y115.6 E62.66434
G1 X132.059 Y115.599 E64.46401
G1 X132.999 Y115.411 E64.4959
G1 X133.844 Y114.844 E64.52974
M205 X10 Y10
G0 F6000 X133.556 Y114.556
M205 X8 Y8
;TYPE:WALL-OUTER
G1 F1350 X134.034 Y113.842 E64.55832
G1 X134.2 Y113.01 E64.58654
G1 X134.199 Y96.981 E65.11967
G1 X134.034 Y96.158 E65.14758
G1 X133.556 Y95.444 E65.17616
G1 X132.842 Y94.966 E65.20474
G1 X132.01 Y94.8 E65.23296
G1 X77.981 Y94.801 E67.02997
G1 X77.158 Y94.966 E67.05789
G1 X76.444 Y95.444 E67.08647
G1 X75.966 Y96.158 E67.11504
G1 X75.8 Y96.99 E67.14326
G1 X75.801 Y113.019 E67.67639
G1 X75.966 Y113.842 E67.70431
G1 X76.444 Y114.556 E67.73288
G1 X77.158 Y115.034 E67.76146
G1 X77.99 Y115.2 E67.78968
G1 X132.019 Y115.199 E69.58669
G1 X132.842 Y115.034 E69.61461
G1 X133.556 Y114.556 E69.64319
M205 X10 Y10
G0 F6000 X133.667 Y114.39
G0 X134.032 Y114.635
G1 F1500 E63.64319
G1 F600 Z0.575
G0 F6000 X77.906 Y115.999 Z0.575
M205 X8 Y8
;TYPE:WALL-INNER
G1 F600 Z0.5
G1 F1500 E69.64319
G1 F1350 X76.846 Y115.999 E69.67844
G1 X76.538 Y115.999 E69.68869
G1 X75.072 Y115.999 E69.73745
G1 X74.625 Y115.911 E69.7526
G1 X74.303 Y115.695 E69.7655
G1 X74.092 Y115.379 E69.77813
G1 X74 Y114.913 E69.79393
G1 X74.001 Y95.072 E70.45385
G1 X74.089 Y94.625 E70.469
G1 X74.305 Y94.303 E70.4819
G1 X74.621 Y94.092 E70.49453
G1 X75.086 Y94 E70.5103
G1 X76.538 Y94 E70.55859
G1 X76.844 Y94 E70.56877
G1 X77.901 Y94.001 E70.60393
G1 X76.844 Y94.212 E70.61382
G1 X76.59 Y94.382 E70.6217
G1 X75.868 Y94.868 E70.65065
G1 X75.212 Y95.846 E70.68981
G1 X75 Y96.911 E70.72593
G1 X75.001 Y113.099 E71.26435
G1 X75.212 Y114.156 E71.3002
G1 X75.868 Y115.132 E71.33931
G1 X76.591 Y115.617 E71.36827
G1 X76.846 Y115.788 E71.37617
G1 X77.906 Y115.999 E71.38605
M205 X10 Y10
G1 F1500 E65.38605
G1 F600 Z0.575
G0 F6000 X134.914 Y116 Z0.575
M205 X8 Y8
G1 F600 Z0.5
G1 F1500 E71.38605
G1 F1350 X133.462 Y116 E71.43434
G1 X133.156 Y116 E71.44452
G1 X132.099 Y115.999 E71.47967
G1 X133.156 Y115.788 E71.48956
G1 X133.41 Y115.618 E71.49744
G1 X134.132 Y115.132 E71.52639
G1 X134.788 Y114.154 E71.56556
G1 X135 Y113.089 E71.60168
G1 X134.999 Y96.901 E72.14009
G1 X134.788 Y95.844 E72.17594
G1 X134.132 Y94.868 E72.21505
G1 X133.409 Y94.383 E72.24401
G1 X133.154 Y94.212 E72.25422
G1 X132.094 Y94.001 E72.29017
G1 X133.154 Y94.001 E72.29937
G1 X133.462 Y94.001 E72.30731
G1 X134.928 Y94.001 E72.35607
G1 X135.375 Y94.089 E72.37122
G1 X135.697 Y94.305 E72.38412
G1 X135.908 Y94.621 E72.39676
G1 X136 Y95.086 E72.41252
G1 X135.999 Y114.928 E73.07247
G1 X135.911 Y115.375 E73.08762
G1 X135.695 Y115.697 E73.10052
G1 X135.379 Y115.908 E73.11316
