;FLAVOR:Marlin
;TIME:7330
;Filament used: 4.8805m
;Layer height: 0.2
;MINX:68.95
;MINY:74.2
;MINZ:0.3
;MAXX:122.05
;MAXY:135.8
;MAXZ:25.975
;Generated with Cura_SteamEngine 4.11.0
M82 ;absolute extrusion mode
G21                                        ; metric values 
G90                                        ; absolute positioning 
M82                                        ; set extruder to absolute mode 
M107                                       ; start with the fan off 
M140 S60           ; Start heating the bed 
G4 S60                                     ; wait 1 minute 
M104 S210         ; start heating the hot end 
M190 S60           ; wait for bed 
M109 S210         ; wait for hotend 
M300 S1000 P500                            ; BEEP heating done 
G28 X0 Y10 Z0                              ; move X/Y to min endstops 
M420 S1                                    ; Enable leveling 
M420 Z2.0                                  ; Set leveling fading height to 2 mm 
G0 Z0.15                                   ; lift nozzle a bit 
G92 E0                                     ; zero the extruded length 
G1 X50 E25 F500                            ; Extrude 25mm of filament in a 5cm line. 
G92 E0                                     ; zero the extruded length again 
G1 E-2 F500                                ; Retract a little 
G1 X120 F4000                              ; Quickly wipe away from the filament line`
G92 E0
G92 E0
G1 F1500 E-6
;LAYER_COUNT:130
;LAYER:0
M106 S76.5
M205 X10 Y10
G1 F600 Z0.375
G0 F6000 X75.396 Y100.438 Z0.375
M205 X8 Y8
;TYPE:SKIRT
G1 F600 Z0.3
G1 F1500 E0
G1 F1200 X75.587 Y100.299 E0.01179
G1 X75.815 Y100.299 E0.02316
G1 X76.006 Y100.438 E0.03495
G1 X76.115 Y100.773 E0.05252
G1 X75.693 Y102.732 E0.1525
G1 X75.345 Y101.661 E0.20868
G1 X75.253 Y100.879 E0.24796
G1 X75.396 Y100.438 E0.27109
M205 X10 Y10
G0 F6000 X75.057 Y100.189
M205 X8 Y8
G1 F1200 X75.455 Y99.899 E0.29566
G1 X75.947 Y99.899 E0.32021
G1 X76.345 Y100.189 E0.34478
G1 X76.529 Y100.753 E0.37437
G1 X76.031 Y103.063 E0.49227
G1 X75.991 Y103.44 E0.51118
G1 X76.079 Y103.998 E0.53936
G1 X76.376 Y104.913 E0.58736
G1 X76.198 Y105.593 E0.62243
G1 X76.276 Y106.335 E0.65965
G1 X76.38 Y106.741 E0.68056
G1 X76.302 Y107.111 E0.69942
G1 X76.333 Y107.677 E0.7277
G1 X76.547 Y108.67 E0.77838
G1 X76.361 Y109.242 E0.80839
G1 X75.951 Y109.541 E0.83371
G1 X75.451 Y109.541 E0.85865
G1 X75.041 Y109.242 E0.88397
G1 X74.855 Y108.67 E0.91398
G1 X75.069 Y107.677 E0.96465
G1 X75.11 Y107.3 E0.98357
G1 X75.022 Y106.741 E1.01181
G1 X75.204 Y105.964 E1.05162
G1 X75.126 Y105.222 E1.08884
G1 X75.026 Y104.913 E1.10505
G1 X75.323 Y103.998 E1.15304
G1 X75.401 Y103.249 E1.19061
G1 X75.323 Y102.885 E1.20918
G1 X74.952 Y101.745 E1.26899
G1 X74.845 Y100.838 E1.31456
G1 X75.057 Y100.189 E1.34862
M205 X10 Y10
G0 F6000 X74.715 Y99.943
M205 X8 Y8
G1 F1200 X75.326 Y99.499 E1.3863
G1 X76.076 Y99.499 E1.42372
G1 X76.687 Y99.943 E1.4614
G1 X76.943 Y100.73 E1.50269
G1 X76.422 Y103.147 E1.62604
G1 X76.46 Y103.875 E1.66241
G1 X76.797 Y104.912 E1.71681
G1 X76.592 Y105.673 E1.75613
G1 X76.657 Y106.211 E1.78317
G1 X76.815 Y106.697 E1.80866
G1 X76.696 Y107.192 E1.83406
G1 X76.724 Y107.592 E1.85407
G1 X76.961 Y108.691 E1.91016
G1 X76.701 Y109.49 E1.95208
G1 X76.081 Y109.941 E1.99033
G1 X75.321 Y109.941 E2.02824
G1 X74.701 Y109.49 E2.06649
G1 X74.441 Y108.691 E2.10841
G1 X74.678 Y107.592 E2.1645
G1 X74.641 Y106.864 E2.20087
G1 X74.587 Y106.697 E2.20963
G1 X74.745 Y106.211 E2.23512
G1 X74.795 Y105.55 E2.26819
G1 X74.605 Y104.912 E2.30141
G1 X74.942 Y103.875 E2.35581
G1 X74.992 Y103.213 E2.38893
G1 X74.942 Y103.009 E2.39941
G1 X74.559 Y101.831 E2.4612
G1 X74.437 Y100.798 E2.5131
G1 X74.715 Y99.943 E2.55795
M205 X10 Y10
G0 F6000 X74.376 Y99.696
M205 X8 Y8
G1 F1200 X75.196 Y99.099 E2.60856
G1 X76.206 Y99.099 E2.65895
G1 X77.026 Y99.696 E2.70955
G1 X77.356 Y100.71 E2.76275
G1 X76.813 Y103.231 E2.89141
G1 X76.84 Y103.751 E2.91739
G1 X77.218 Y104.913 E2.97835
G1 X77.037 Y105.469 E3.00752
G1 X77.037 Y106.087 E3.03835
G1 X77.236 Y106.697 E3.07036
G1 X77.092 Y107.266 E3.09965
G1 X77.115 Y107.508 E3.11177
G1 X77.375 Y108.712 E3.17323
G1 X77.04 Y109.738 E3.22707
G1 X76.212 Y110.341 E3.27818
G1 X75.19 Y110.341 E3.32916
G1 X74.362 Y109.738 E3.38027
G1 X74.027 Y108.712 E3.43411
G1 X74.287 Y107.508 E3.49557
G1 X74.261 Y106.988 E3.52154
G1 X74.166 Y106.697 E3.53681
G1 X74.365 Y106.087 E3.56882
G1 X74.365 Y105.469 E3.59966
G1 X74.184 Y104.913 E3.62883
G1 X74.562 Y103.751 E3.68979
G1 X74.562 Y103.133 E3.72062
G1 X74.166 Y101.916 E3.78447
G1 X74.03 Y100.759 E3.84259
G1 X74.376 Y99.696 E3.89837
M205 X10 Y10
G0 F6000 X74.036 Y99.448
M205 X8 Y8
G1 F1200 X75.065 Y98.699 E3.96186
G1 X76.337 Y98.699 E4.02532
G1 X77.366 Y99.448 E4.08882
G1 X77.77 Y100.689 E4.15393
G1 X77.204 Y103.316 E4.288
G1 X77.22 Y103.627 E4.30354
G1 X77.638 Y104.913 E4.371
G1 X77.417 Y105.593 E4.40667
G1 X77.417 Y105.964 E4.42518
G1 X77.656 Y106.698 E4.46369
G1 X77.506 Y107.424 E4.50068
G1 X77.789 Y108.734 E4.56754
G1 X77.381 Y109.984 E4.63314
G1 X76.342 Y110.741 E4.69728
G1 X75.06 Y110.741 E4.76124
G1 X74.021 Y109.984 E4.82537
G1 X73.613 Y108.734 E4.89097
G1 X73.896 Y107.424 E4.95784
G1 X73.746 Y106.698 E4.99482
G1 X73.985 Y105.964 E5.03333
G1 X73.985 Y105.593 E5.05184
G1 X73.764 Y104.913 E5.08751
G1 X74.182 Y103.627 E5.15498
G1 X74.182 Y103.256 E5.17349
G1 X73.774 Y102.001 E5.23932
G1 X73.623 Y100.719 E5.30373
G1 X74.036 Y99.448 E5.3704
M205 X10 Y10
G0 F6000 X73.695 Y99.202
M205 X8 Y8
G1 F1200 X74.936 Y98.299 E5.44697
G1 X76.466 Y98.299 E5.5233
G1 X77.707 Y99.202 E5.59987
G1 X78.184 Y100.666 E5.67669
G1 X77.595 Y103.4 E5.81622
G1 X77.601 Y103.504 E5.82142
G1 X78.059 Y104.913 E5.89533
G1 X77.798 Y105.716 E5.93746
G1 X77.798 Y105.84 E5.94364
G1 X78.077 Y106.697 E5.98861
G1 X77.902 Y107.235 E6.01683
G1 X77.897 Y107.339 E6.02203
G1 X78.202 Y108.755 E6.09429
G1 X77.721 Y110.231 E6.17174
G1 X76.471 Y111.141 E6.24888
G1 X74.931 Y111.141 E6.32571
G1 X73.681 Y110.231 E6.40285
G1 X73.2 Y108.755 E6.4803
G1 X73.505 Y107.339 E6.55256
G1 X73.5 Y107.235 E6.55776
G1 X73.325 Y106.697 E6.58598
G1 X73.604 Y105.84 E6.63095
G1 X73.604 Y105.716 E6.63713
G1 X73.343 Y104.913 E6.67926
G1 X73.801 Y103.504 E6.75317
G1 X73.801 Y103.38 E6.75936
G1 X73.382 Y102.091 E6.82698
G1 X73.215 Y100.676 E6.89807
G1 X73.695 Y99.202 E6.9754
M205 X10 Y10
G1 F1500 E0.9754
G1 F600 Z0.375
G0 F6000 X75.701 Y104.128 Z0.375
M205 X8 Y8
G1 F600 Z0.3
G1 F1500 E6.9754
G1 F1200 X75.956 Y104.913 E7.01658
G1 X75.805 Y105.507 E7.04716
G1 X75.793 Y105.926 E7.06807
G1 X75.896 Y106.459 E7.09516
G1 X75.979 Y106.713 E7.10849
G1 X75.897 Y107.445 E7.14524
G1 X75.942 Y107.761 E7.16116
G1 X76.133 Y108.648 E7.20643
G1 X76.019 Y108.997 E7.22474
G1 X75.822 Y109.141 E7.23692
G1 X75.58 Y109.141 E7.24899
G1 X75.383 Y108.997 E7.26117
G1 X75.269 Y108.648 E7.27948
G1 X75.46 Y107.761 E7.32475
G1 X75.479 Y106.927 E7.36637
G1 X75.425 Y106.709 E7.37757
G1 X75.597 Y106.05 E7.41155
G1 X75.609 Y105.631 E7.43247
G1 X75.506 Y105.098 E7.45955
G1 X75.446 Y104.913 E7.46925
G1 X75.701 Y104.128 E7.51043
M205 X10 Y10
G1 F1500 E1.51043
G1 F600 Z0.375
;MESH:??????????????????????????????.stl
G0 F6000 X92.875 Y133.599 Z0.375
M205 X8 Y8
;TYPE:WALL-INNER
G1 F600 Z0.3
G1 F1500 E7.51043
G1 F1200 X93.619 Y133.393 E7.54894
G1 X94.204 Y132.799 E7.59054
G1 X94.401 Y132.066 E7.62841
G1 X94.4 Y77.926 E10.32946
G1 X94.194 Y77.182 E10.36798
G1 X93.6 Y76.597 E10.40957
G1 X92.867 Y76.4 E10.44744
G1 X72.727 Y76.401 E11.45223
G1 X71.983 Y76.607 E11.49074
G1 X71.398 Y77.201 E11.53233
G1 X71.201 Y77.934 E11.5702
G1 X71.202 Y132.074 E14.27126
G1 X71.408 Y132.818 E14.30977
G1 X72.002 Y133.403 E14.35137
G1 X72.735 Y133.6 E14.38923
G1 X92.875 Y133.599 E15.39402
M205 X10 Y10
G0 F6000 X92.821 Y133.199
M205 X8 Y8
;TYPE:WALL-OUTER
G1 F1200 X93.409 Y133.036 E15.42446
G1 X93.845 Y132.593 E15.45547
G1 X94.001 Y132.013 E15.48544
G1 X94 Y77.98 E18.18116
G1 X93.837 Y77.392 E18.2116
G1 X93.394 Y76.956 E18.24261
G1 X92.814 Y76.8 E18.27257
G1 X72.781 Y76.801 E19.27202
G1 X72.193 Y76.964 E19.30246
G1 X71.757 Y77.407 E19.33347
G1 X71.601 Y77.987 E19.36344
G1 X71.602 Y132.02 E22.05916
G1 X71.765 Y132.608 E22.0896
G1 X72.208 Y133.044 E22.12061
G1 X72.788 Y133.2 E22.15057
G1 X92.821 Y133.199 E23.15002
M205 X10 Y10
G0 F6000 X93.013 Y133.146
G0 X93.129 Y133.57
G1 F1500 E17.15002
G1 F600 Z0.375
G0 F6000 X94.8 Y77.872 Z0.375
M205 X8 Y8
;TYPE:WALL-INNER
G1 F600 Z0.3
G1 F1500 E23.15002
G1 F1200 X94.587 Y77.102 E23.18988
G1 X94.551 Y76.972 E23.19661
G1 X94.522 Y76.943 E23.19866
G1 X94.452 Y76.874 E23.20356
G1 X93.806 Y76.238 E23.24879
G1 X92.92 Y76 E23.29456
G1 X72.673 Y76.001 E24.30468
G1 X71.773 Y76.25 E24.35127
G1 X71.239 Y76.792 E24.38923
G1 X71.039 Y76.995 E24.40345
G1 X71.005 Y77.122 E24.41001
G1 X70.802 Y77.877 E24.44901
G1 X70.802 Y77.068 E24.46039
G1 X70.821 Y76.957 E24.4632
G1 X70.871 Y76.675 E24.47446
G1 X70.934 Y76.32 E24.49244
G1 X71.278 Y75.726 E24.52669
G1 X71.818 Y75.273 E24.56185
G1 X72.488 Y75.031 E24.59739
G1 X72.842 Y75 E24.61512
G1 X92.733 Y75.001 E25.60749
G1 X93.482 Y75.133 E25.64543
G1 X94.074 Y75.476 E25.67957
G1 X94.525 Y76.014 E25.71459
G1 X94.737 Y76.597 E25.74554
G1 X94.77 Y76.69 E25.75019
G1 X94.792 Y76.95 E25.76091
G1 X94.801 Y77.042 E25.76315
G1 X94.8 Y77.872 E25.77552
M205 X10 Y10
G1 F1500 E19.77552
G1 F600 Z0.375
G0 F6000 X93.114 Y134.969 Z0.375
M205 X8 Y8
G1 F600 Z0.3
G1 F1500 E25.77552
G1 F1200 X92.76 Y135 E25.79325
G1 X72.869 Y134.999 E26.78561
G1 X72.122 Y134.868 E26.82345
G1 X71.522 Y134.522 E26.85801
G1 X71.077 Y133.988 E26.89268
G1 X70.864 Y133.402 E26.92379
G1 X70.831 Y133.311 E26.92862
G1 X70.809 Y133.05 E26.94169
G1 X70.801 Y132.965 E26.94595
G1 X70.802 Y132.128 E26.98771
G1 X71.017 Y132.905 E26.99871
G1 X71.051 Y133.028 E27.0028
G1 X71.08 Y133.057 E27.003
G1 X71.149 Y133.125 E27.00757
G1 X71.796 Y133.762 E27.05287
G1 X72.682 Y134 E27.09864
G1 X92.929 Y133.999 E28.10876
G1 X93.829 Y133.75 E28.15535
G1 X94.363 Y133.208 E28.19331
G1 X94.563 Y133.005 E28.20753
G1 X94.597 Y132.876 E28.21418
G1 X94.8 Y132.123 E28.25309
G1 X94.8 Y132.93 E28.26444
G1 X94.781 Y133.043 E28.26731
G1 X94.732 Y133.325 E28.27855
G1 X94.668 Y133.681 E28.2966
G1 X94.325 Y134.273 E28.33073
G1 X93.784 Y134.727 E28.36597
G1 X93.114 Y134.969 E28.40151
M205 X10 Y10
G0 F6000 X93.199 Y135.364
M205 X8 Y8
G1 F1200 X92.782 Y135.4 E28.42239
G1 X72.834 Y135.399 E29.4176
G1 X71.982 Y135.249 E29.46076
G1 X71.262 Y134.834 E29.50222
G1 X71.216 Y134.778 E29.50584
G1 X70.725 Y134.19 E29.54405
G1 X70.438 Y133.399 E29.58604
G1 X70.434 Y133.346 E29.58869
G1 X70.404 Y133.001 E29.60596
G1 X70.401 Y132.977 E29.60717
G1 X70.402 Y77.033 E32.39823
G1 X70.552 Y76.182 E32.44134
G1 X70.968 Y75.463 E32.48278
G1 X71.614 Y74.922 E32.52482
G1 X72.403 Y74.636 E32.56669
G1 X72.82 Y74.6 E32.58757
G1 X92.768 Y74.601 E33.58278
G1 X93.62 Y74.751 E33.62594
G1 X94.337 Y75.166 E33.66727
G1 X94.877 Y75.811 E33.70924
G1 X95.165 Y76.604 E33.75133
G1 X95.201 Y77.019 E33.77211
G1 X95.2 Y132.965 E36.56327
G1 X95.05 Y133.819 E36.60653
G1 X94.635 Y134.536 E36.64786
G1 X93.988 Y135.078 E36.68997
G1 X93.199 Y135.364 E36.73184
M205 X10 Y10
G0 F6000 X93.287 Y135.757
M205 X8 Y8
;TYPE:WALL-OUTER
G1 F1200 X92.794 Y135.8 E36.75653
G1 X72.799 Y135.799 E37.75408
G1 X71.844 Y135.631 E37.80246
G1 X71.001 Y135.144 E37.85103
G1 X70.372 Y134.391 E37.89998
G1 X70.043 Y133.485 E37.94807
G1 X70.001 Y133 E37.97236
G1 X70.002 Y76.998 E40.76631
G1 X70.17 Y76.044 E40.81463
G1 X70.658 Y75.2 E40.86327
G1 X71.41 Y74.571 E40.91218
G1 X72.315 Y74.243 E40.96021
G1 X72.808 Y74.2 E40.9849
G1 X92.803 Y74.201 E41.98245
G1 X93.758 Y74.369 E42.03083
G1 X94.6 Y74.856 E42.07936
G1 X95.229 Y75.608 E42.12827
G1 X95.558 Y76.514 E42.17636
G1 X95.601 Y77.007 E42.20105
G1 X95.6 Y133 E44.99455
G1 X95.432 Y133.957 E45.04302
G1 X94.945 Y134.799 E45.09155
G1 X94.192 Y135.429 E45.14053
G1 X93.287 Y135.757 E45.18856
M205 X10 Y10
G0 F6000 X93.088 Y135.774
G0 X93.051 Y135.335
G0 X93.026 Y134.585
M205 X8 Y8
;TYPE:SKIN
G1 F1200 X92.748 Y134.61 E45.20248
G1 X72.903 Y134.609 E46.19255
G1 X72.258 Y134.496 E46.22522
G1 X71.778 Y134.219 E46.25287
G1 X71.715 Y134.143 E46.2578
G1 X72.631 Y134.39 E46.30513
G1 X92.982 Y134.389 E47.32045
G1 X93.873 Y134.142 E47.36657
G1 X93.586 Y134.383 E47.38527
G1 X93.026 Y134.585 E47.41497
M205 X10 Y10
G1 F1500 E41.41497
G1 F600 Z0.375
G0 F6000 X93.885 Y75.856 Z0.375
M205 X8 Y8
G1 F600 Z0.3
G1 F1500 E47.41497
G1 F1200 X92.971 Y75.61 E47.46219
G1 X72.62 Y75.611 E48.47751
G1 X71.729 Y75.858 E48.52364
G1 X72.016 Y75.617 E48.54234
G1 X72.576 Y75.415 E48.57204
G1 X72.854 Y75.39 E48.58596
G1 X92.699 Y75.391 E49.57603
G1 X93.348 Y75.505 E49.60891
G1 X93.82 Y75.779 E49.63613
G1 X93.885 Y75.856 E49.64116
M205 X10 Y10
G1 F1500 E43.64116
G1 F600 Z0.375
G0 F6000 X94.876 Y78.189 Z0.375
M205 X8 Y8
;TYPE:SKIN
G1 F600 Z0.3
G1 F1500 E49.64116
G1 F1200 X94.799 Y78.394 E49.65241
G1 X94.8 Y114.599 E51.51242
G1 X94.8 Y131.569 E52.38424
G1 X94.622 Y131.957 E52.40617
M205 X10 Y10
G1 F1500 E46.40617
G1 F600 Z0.375
G0 F6000 X70.801 Y131.612 Z0.375
M205 X8 Y8
G1 F600 Z0.3
G1 F1500 E52.40617
G1 F1200 X70.72 Y131.814 E52.41728
G1 X70.801 Y130.763 E52.47109
G1 X70.801 Y78.437 E55.14209
G1 X70.977 Y78.048 E55.16389
M205 X10 Y10
G1 F1500 E49.16389
G1 F600 Z0.375
;MESH:???????????????.stl
G0 F6000 X113.262 Y125.841 Z0.375
M205 X8 Y8
;TYPE:WALL-INNER
G1 F600 Z0.3
G1 F1500 E55.16389
G1 F1200 X112.738 Y125.841 E55.19003
G1 X112.215 Y125.807 E55.21618
G1 X111.686 Y125.74 E55.24278
G1 X111.16 Y125.637 E55.26952
G1 X110.653 Y125.503 E55.29568
G1 X110.153 Y125.339 E55.32194
G1 X109.642 Y125.131 E55.34946
G1 X109.191 Y124.914 E55.37443
G1 X108.732 Y124.656 E55.4007
G1 X108.282 Y124.362 E55.42752
G1 X107.853 Y124.042 E55.45422
G1 X107.461 Y123.709 E55.47988
G1 X107.062 Y123.323 E55.50758
G1 X106.728 Y122.955 E55.53237
G1 X106.383 Y122.522 E55.55999
G1 X106.093 Y122.105 E55.58533
G1 X105.809 Y121.639 E55.61256
G1 X105.569 Y121.178 E55.63849
G1 X105.344 Y120.67 E55.66621
G1 X105.175 Y120.21 E55.69065
G1 X105.017 Y119.675 E55.71849
G1 X104.902 Y119.17 E55.74433
G1 X104.816 Y118.638 E55.77121
G1 X104.769 Y118.139 E55.79622
G1 X104.75 Y117.601 E55.82307
G1 X104.769 Y117.043 E55.85093
G1 X104.817 Y116.543 E55.87599
G1 X104.902 Y116.023 E55.90228
G1 X105.017 Y115.517 E55.92816
G1 X105.177 Y114.976 E55.95631
G1 X105.346 Y114.518 E55.98067
G1 X105.569 Y114.013 E56.00821
G1 X105.809 Y113.553 E56.03409
G1 X106.097 Y113.08 E56.06172
G1 X106.385 Y112.665 E56.08692
G1 X106.719 Y112.248 E56.11358
G1 X107.07 Y111.861 E56.13964
G1 X107.45 Y111.492 E56.16607
G1 X107.855 Y111.148 E56.19258
G1 X108.273 Y110.835 E56.21863
G1 X108.743 Y110.53 E56.24659
G1 X109.167 Y110.291 E56.27087
G1 X109.659 Y110.053 E56.29814
G1 X110.154 Y109.853 E56.32477
G1 X110.637 Y109.692 E56.35017
G1 X111.166 Y109.553 E56.37746
G1 X111.69 Y109.451 E56.40409
G1 X112.213 Y109.385 E56.43039
G1 X112.737 Y109.351 E56.45659
G1 X113.263 Y109.351 E56.48283
G1 X113.789 Y109.385 E56.50913
G1 X114.332 Y109.453 E56.53643
G1 X114.816 Y109.549 E56.56105
G1 X115.356 Y109.69 E56.58889
G1 X115.846 Y109.853 E56.61466
G1 X116.341 Y110.053 E56.64129
G1 X116.833 Y110.291 E56.66856
G1 X117.257 Y110.53 E56.69284
G1 X117.727 Y110.835 E56.72079
G1 X118.145 Y111.148 E56.74685
G1 X118.55 Y111.492 E56.77336
G1 X118.93 Y111.861 E56.79978
G1 X119.281 Y112.248 E56.82585
G1 X119.615 Y112.665 E56.8525
G1 X119.903 Y113.08 E56.8777
G1 X120.191 Y113.553 E56.90533
G1 X120.431 Y114.013 E56.93122
G1 X120.651 Y114.511 E56.95838
G1 X120.825 Y114.985 E56.98357
G1 X120.979 Y115.501 E57.01044
G1 X121.098 Y116.023 E57.03715
G1 X121.183 Y116.543 E57.06343
G1 X121.231 Y117.044 E57.08854
G1 X121.25 Y117.589 E57.11575
G1 X121.231 Y118.14 E57.14326
G1 X121.184 Y118.638 E57.16821
G1 X121.098 Y119.17 E57.1951
G1 X120.983 Y119.675 E57.22094
G1 X120.825 Y120.21 E57.24877
G1 X120.656 Y120.67 E57.27322
G1 X120.431 Y121.178 E57.30094
G1 X120.191 Y121.639 E57.32687
G1 X119.907 Y122.105 E57.35409
G1 X119.617 Y122.522 E57.37943
G1 X119.272 Y122.955 E57.40705
G1 X118.938 Y123.323 E57.43185
G1 X118.539 Y123.709 E57.45954
G1 X118.147 Y124.042 E57.48521
