;FLAVOR:Marlin
;TIME:1040
;Filament used: 0.746081m
;Layer height: 0.2
;MINX:80.2
;MINY:94.16
;MINZ:0.3
;MAXX:129.8
;MAXY:115.84
;MAXZ:8.375
;Generated with Cura_SteamEngine 4.11.0
M82 ;absolute extrusion mode
G21                                        ; metric values 
G90                                        ; absolute positioning 
M82                                        ; set extruder to absolute mode 
M107                                       ; start with the fan off 
M140 S60           ; Start heating the bed 
G4 S60                                     ; wait 1 minute 
M104 S210         ; start heating the hot end 
M190 S60           ; wait for bed 
M109 S210         ; wait for hotend 
M300 S1000 P500                            ; BEEP heating done 
G28 X0 Y10 Z0                              ; move X/Y to min endstops 
M420 S1                                    ; Enable leveling 
M420 Z2.0                                  ; Set leveling fading height to 2 mm 
G0 Z0.15                                   ; lift nozzle a bit 
G92 E0                                     ; zero the extruded length 
G1 X50 E25 F500                            ; Extrude 25mm of filament in a 5cm line. 
G92 E0                                     ; zero the extruded length again 
G1 E-2 F500                                ; Retract a little 
G1 X120 F4000                              ; Quickly wipe away from the filament line`
G92 E0
G92 E0
G1 F1500 E-6
;LAYER_COUNT:41
;LAYER:0
M106 S76.5
M205 X10 Y10
G1 F600 Z0.375
;MESH:?????????.stl
G0 F6000 X88.961 Y102.407 Z0.375
M205 X8 Y8
;TYPE:WALL-INNER
G1 F600 Z0.3
G1 F1500 E0
G1 F1200 X89.261 Y101.631 E0.04151
G1 X89.41 Y100.875 E0.07995
G1 X89.467 Y100.351 E0.10625
G1 X89.512 Y99.778 E0.13492
G1 X89.56 Y99.264 E0.16068
G1 X89.614 Y98.485 E0.19963
G1 X89.676 Y97.809 E0.2335
G1 X89.771 Y97.112 E0.2686
G1 X89.775 Y97.089 E0.26976
G1 X89.791 Y96.411 E0.3036
G1 X89.825 Y96.013 E0.32353
G1 X90.096 Y95.743 E0.34261
G1 X90.419 Y95.65 E0.35938
G1 X91.222 Y95.556 E0.39971
G1 X91.649 Y95.533 E0.42105
G1 X92.393 Y95.503 E0.4582
G1 X92.803 Y95.489 E0.47866
G1 X94.546 Y95.445 E0.56565
G1 X95.627 Y95.421 E0.6196
G1 X97.245 Y95.378 E0.70035
G1 X97.762 Y95.37 E0.72614
G1 X98.431 Y95.461 E0.75983
G1 X98.598 Y95.794 E0.77841
G1 X98.621 Y96.282 E0.80279
G1 X98.681 Y96.854 E0.83148
G1 X98.721 Y97.125 E0.84515
G1 X98.94 Y98.435 E0.91141
G1 X99.057 Y99.236 E0.9518
G1 X99.255 Y100.149 E0.9984
G1 X99.512 Y100.988 E1.04218
G1 X99.769 Y101.6 E1.0753
G1 X100.185 Y102.235 E1.11317
G1 X100.706 Y102.797 E1.1514
G1 X101.339 Y103.311 E1.19208
G1 X101.912 Y103.657 E1.22548
G1 X102.47 Y103.906 E1.25596
G1 X103.13 Y104.116 E1.29052
G1 X103.875 Y104.265 E1.32842
G1 X104.429 Y104.334 E1.35627
G1 X105.346 Y104.404 E1.40216
G1 X106.31 Y104.435 E1.45028
G1 X107.414 Y104.449 E1.50536
G1 X108.401 Y104.454 E1.5546
G1 X109.155 Y104.451 E1.59222
G1 X109.876 Y104.433 E1.6282
G1 X110.364 Y104.41 E1.65257
G1 X111.186 Y104.352 E1.69369
G1 X111.729 Y104.299 E1.72091
G1 X112.264 Y104.238 E1.74777
G1 X112.726 Y104.182 E1.77099
G1 X113.261 Y104.108 E1.79793
G1 X113.797 Y104.028 E1.82497
G1 X114.631 Y103.891 E1.86714
G1 X115.4 Y103.746 E1.90618
G1 X116.248 Y103.568 E1.94941
G1 X116.804 Y103.435 E1.97793
G1 X117.251 Y103.322 E2.00093
G1 X117.769 Y103.179 E2.02774
G1 X118.284 Y103.029 E2.0545
G1 X118.944 Y102.827 E2.08894
G1 X119.562 Y102.63 E2.1213
G1 X120.567 Y102.297 E2.17412
G1 X121.258 Y102.059 E2.21058
G1 X121.944 Y101.811 E2.24697
G1 X122.647 Y101.524 E2.28486
G1 X123.203 Y101.248 E2.31582
G1 X123.67 Y100.981 E2.34266
G1 X124.263 Y100.684 E2.37575
G1 X124.844 Y100.618 E2.40492
G1 X125.194 Y100.736 E2.42335
G1 X125.579 Y100.999 E2.44661
G1 X126.161 Y101.627 E2.48933
G1 X126.495 Y102.093 E2.51793
G1 X126.829 Y102.636 E2.54974
G1 X127.123 Y103.181 E2.58063
G1 X127.369 Y103.7 E2.60929
G1 X127.702 Y104.507 E2.65284
G1 X127.894 Y105.053 E2.68171
G1 X128.078 Y105.648 E2.71279
G1 X128.211 Y106.158 E2.73908
G1 X128.325 Y106.672 E2.76535
G1 X128.424 Y107.22 E2.79313
G1 X128.491 Y107.692 E2.81691
G1 X128.551 Y108.29 E2.8469
G1 X128.59 Y109.245 E2.89458
G1 X128.575 Y109.809 E2.92273
G1 X128.504 Y110.588 E2.96176
G1 X128.403 Y111.126 E2.98907
G1 X128.179 Y111.826 E3.02573
G1 X127.72 Y112.579 E3.06973
G1 X127.435 Y112.876 E3.09027
G1 X127.019 Y113.194 E3.11639
G1 X126.475 Y113.494 E3.14738
G1 X125.991 Y113.692 E3.17347
G1 X125.39 Y113.883 E3.20494
G1 X124.703 Y114.05 E3.24021
G1 X124.492 Y114.094 E3.25096
G1 X123.843 Y114.205 E3.28381
G1 X123.13 Y114.298 E3.31968
G1 X122.598 Y114.353 E3.34637
G1 X122.07 Y114.398 E3.3728
G1 X121.551 Y114.435 E3.39876
G1 X121.047 Y114.461 E3.42394
G1 X120.52 Y114.482 E3.45025
G1 X119.743 Y114.5 E3.48903
G1 X118.974 Y114.505 E3.5274
G1 X118.203 Y114.499 E3.56586
G1 X117.235 Y114.48 E3.61416
G1 X116.511 Y114.458 E3.6503
G1 X116.013 Y114.439 E3.67517
G1 X115 Y114.394 E3.72575
G1 X114.004 Y114.334 E3.77553
G1 X113.433 Y114.295 E3.80409
G1 X112.502 Y114.222 E3.85068
G1 X111.77 Y114.155 E3.88735
G1 X111.021 Y114.079 E3.92491
G1 X110.038 Y113.965 E3.97428
G1 X109.297 Y113.869 E4.01156
G1 X108.347 Y113.733 E4.05944
G1 X107.391 Y113.585 E4.1077
G1 X106.448 Y113.431 E4.15537
G1 X105.77 Y113.314 E4.1897
G1 X105.692 Y113.304 E4.19362
G1 X104.749 Y113.141 E4.24136
G1 X103.835 Y112.98 E4.28767
G1 X103.3 Y112.881 E4.31481
G1 X102.53 Y112.732 E4.35394
G1 X101.799 Y112.568 E4.39131
G1 X101.192 Y112.414 E4.42256
G1 X100.241 Y112.144 E4.47188
G1 X99.581 Y111.977 E4.50584
G1 X99.2 Y111.896 E4.52528
G1 X98.654 Y111.801 E4.55293
G1 X97.818 Y111.686 E4.59503
G1 X97.259 Y111.625 E4.62308
G1 X96.663 Y111.57 E4.65294
G1 X96.249 Y111.539 E4.67365
G1 X95.7 Y111.505 E4.7011
G1 X94.84 Y111.473 E4.74403
G1 X94.276 Y111.469 E4.77217
G1 X93.43 Y111.492 E4.81439
G1 X92.864 Y111.534 E4.84271
G1 X92.159 Y111.61 E4.87808
G1 X91.512 Y111.709 E4.91074
G1 X90.6 Y111.888 E4.95711
G1 X90.093 Y112.003 E4.98304
G1 X89.529 Y112.145 E5.01206
G1 X89.107 Y112.256 E5.03383
G1 X88.549 Y112.417 E5.0628
G1 X87.64 Y112.696 E5.11024
G1 X87.137 Y112.868 E5.13676
G1 X86.414 Y113.13 E5.17513
G1 X85.739 Y113.408 E5.21155
G1 X84.898 Y113.808 E5.25801
G1 X84.097 Y114.253 E5.30373
G1 X83.662 Y114.47 E5.32798
G1 X83.144 Y114.614 E5.3548
G1 X82.355 Y114.527 E5.3944
G1 X81.737 Y114.145 E5.43065
G1 X81.529 Y113.803 E5.45062
G1 X81.431 Y113.364 E5.47306
G1 X81.411 Y112.759 E5.50326
G1 X81.422 Y112.358 E5.52328
G1 X81.444 Y111.789 E5.55168
G1 X81.496 Y110.992 E5.59153
G1 X81.583 Y110.198 E5.63138
G1 X81.674 Y109.665 E5.65836
G1 X81.812 Y109.06 E5.68932
G1 X81.961 Y108.575 E5.71463
G1 X82.148 Y108.059 E5.74201
G1 X82.41 Y107.46 E5.77463
G1 X82.66 Y106.966 E5.80225
G1 X82.92 Y106.509 E5.82848
G1 X83.226 Y106.051 E5.85596
G1 X83.509 Y105.687 E5.87897
G1 X83.873 Y105.301 E5.90544
G1 X84.199 Y105.03 E5.92659
G1 X84.677 Y104.713 E5.9552
G1 X85.138 Y104.486 E5.98084
G1 X85.64 Y104.294 E6.00765
G1 X86.332 Y104.066 E6.044
G1 X86.977 Y103.841 E6.07808
G1 X87.737 Y103.507 E6.1195
G1 X88.414 Y103.054 E6.16014
G1 X88.961 Y102.407 E6.20241
M205 X10 Y10
G0 F6000 X88.612 Y102.2
M205 X8 Y8
G1 F1200 X88.875 Y101.519 E6.23883
G1 X89.014 Y100.814 E6.27468
G1 X89.069 Y100.313 E6.29982
G1 X89.114 Y99.746 E6.3282
G1 X89.161 Y99.232 E6.35395
G1 X89.216 Y98.448 E6.39316
G1 X89.28 Y97.754 E6.42793
G1 X89.376 Y97.057 E6.46303
G1 X89.392 Y96.377 E6.49697
G1 X89.434 Y95.887 E6.5215
G1 X89.622 Y95.576 E6.53963
G1 X89.926 Y95.376 E6.55779
G1 X90.308 Y95.267 E6.57761
G1 X90.34 Y95.257 E6.57928
G1 X90.372 Y95.254 E6.58088
G1 X91.175 Y95.16 E6.62122
G1 X91.185 Y95.158 E6.62173
G1 X91.199 Y95.158 E6.62243
G1 X91.633 Y95.133 E6.64411
G1 X92.377 Y95.103 E6.68126
G1 X92.789 Y95.089 E6.70183
G1 X94.536 Y95.045 E6.78901
G1 X95.617 Y95.021 E6.84296
G1 X97.234 Y94.978 E6.92366
G1 X97.771 Y94.97 E6.95045
G1 X98.228 Y94.987 E6.97327
G1 X98.639 Y95.105 E6.9946
G1 X98.883 Y95.341 E7.01154
G1 X98.996 Y95.729 E7.0317
G1 X99.02 Y96.252 E7.05782
G1 X99.078 Y96.804 E7.08551
G1 X99.116 Y97.063 E7.09857
G1 X99.336 Y98.377 E7.16504
G1 X99.451 Y99.165 E7.20477
G1 X99.642 Y100.048 E7.24984
G1 X99.889 Y100.852 E7.2918
G1 X100.124 Y101.412 E7.3221
G1 X100.501 Y101.988 E7.35645
G1 X100.98 Y102.504 E7.39157
G1 X101.57 Y102.983 E7.42949
G1 X102.098 Y103.302 E7.46026
G1 X102.613 Y103.532 E7.4884
G1 X103.23 Y103.728 E7.5207
G1 X103.939 Y103.87 E7.55678
G1 X104.469 Y103.936 E7.58342
G1 X105.368 Y104.004 E7.6284
G1 X106.319 Y104.035 E7.67587
G1 X107.418 Y104.049 E7.73071
G1 X108.401 Y104.054 E7.77975
G1 X109.149 Y104.051 E7.81707
G1 X109.862 Y104.033 E7.85265
G1 X110.341 Y104.011 E7.87657
G1 X111.152 Y103.953 E7.91714
G1 X111.687 Y103.901 E7.94395
G1 X112.217 Y103.841 E7.97056
G1 X112.674 Y103.785 E7.99353
G1 X113.204 Y103.712 E8.02023
G1 X113.735 Y103.633 E8.04701
G1 X114.562 Y103.497 E8.08882
G1 X115.322 Y103.354 E8.1274
G1 X116.16 Y103.178 E8.17012
G1 X116.708 Y103.047 E8.19823
G1 X117.149 Y102.935 E8.22093
G1 X117.66 Y102.794 E8.24738
G1 X118.17 Y102.646 E8.27388
G1 X118.825 Y102.445 E8.30806
G1 X119.438 Y102.25 E8.34015
G1 X120.439 Y101.918 E8.39277
G1 X121.125 Y101.682 E8.42896
G1 X121.8 Y101.438 E8.46477
G1 X122.482 Y101.159 E8.50153
G1 X123.015 Y100.895 E8.5312
G1 X123.491 Y100.623 E8.55856
G1 X124.122 Y100.307 E8.59376
G1 X124.527 Y100.206 E8.61459
G1 X124.916 Y100.22 E8.63401
G1 X125.374 Y100.375 E8.65813
G1 X125.844 Y100.696 E8.68653
G1 X126.468 Y101.37 E8.73235
G1 X126.836 Y101.883 E8.76385
G1 X127.17 Y102.426 E8.79565
G1 X127.475 Y102.991 E8.82769
G1 X127.483 Y103.009 E8.82867
G1 X127.739 Y103.547 E8.85839
G1 X128.072 Y104.354 E8.90195
G1 X128.27 Y104.92 E8.93186
G1 X128.276 Y104.935 E8.93267
G1 X128.459 Y105.53 E8.96373
G1 X128.465 Y105.547 E8.96463
G1 X128.602 Y106.072 E8.9917
G1 X128.719 Y106.601 E9.01872
G1 X128.818 Y107.149 E9.04651
G1 X128.886 Y107.636 E9.07104
G1 X128.889 Y107.652 E9.07185
G1 X128.949 Y108.25 E9.10184
G1 X128.949 Y108.265 E9.10258
G1 X128.979 Y108.744 E9.12653
G1 X128.99 Y109.256 E9.15208
G1 X128.975 Y109.824 E9.18043
G1 X128.9 Y110.646 E9.22161
G1 X128.791 Y111.225 E9.251
G1 X128.545 Y111.994 E9.29128
G1 X128.039 Y112.825 E9.33982
G1 X127.703 Y113.175 E9.36403
G1 X127.241 Y113.528 E9.39303
G1 X126.668 Y113.843 E9.42565
G1 X126.645 Y113.856 E9.42697
G1 X126.131 Y114.067 E9.45469
G1 X125.489 Y114.271 E9.4883
G1 X124.795 Y114.44 E9.52394
G1 X124.573 Y114.486 E9.53525
G1 X123.895 Y114.602 E9.56956
G1 X123.182 Y114.695 E9.60544
G1 X122.632 Y114.752 E9.63302
G1 X122.104 Y114.797 E9.65946
G1 X121.579 Y114.834 E9.68572
G1 X121.063 Y114.861 E9.7115
G1 X120.536 Y114.882 E9.73781
G1 X119.752 Y114.9 E9.77693
G1 X118.974 Y114.905 E9.81575
G1 X118.195 Y114.899 E9.85462
G1 X117.223 Y114.88 E9.90312
G1 X116.496 Y114.858 E9.9394
G1 X115.995 Y114.839 E9.96442
G1 X114.982 Y114.793 E10.01501
G1 X113.977 Y114.733 E10.06524
G1 X113.402 Y114.694 E10.09399
G1 X112.471 Y114.621 E10.14058
G1 X111.73 Y114.553 E10.1777
G1 X110.981 Y114.477 E10.21526
G1 X109.987 Y114.362 E10.26519
G1 X109.246 Y114.266 E10.30246
G1 X108.29 Y114.129 E10.35065
G1 X107.326 Y113.98 E10.39931
G1 X106.383 Y113.825 E10.44699
G1 X105.711 Y113.71 E10.481
G1 X105.641 Y113.701 E10.48452
G1 X104.68 Y113.535 E10.53318
G1 X103.766 Y113.374 E10.57948
G1 X103.224 Y113.274 E10.60698
G1 X102.454 Y113.124 E10.64611
G1 X101.701 Y112.956 E10.68461
G1 X101.094 Y112.802 E10.71585
G1 X100.137 Y112.53 E10.76548
G1 X99.49 Y112.367 E10.79877
G1 X99.124 Y112.289 E10.81744
G1 X98.592 Y112.196 E10.84439
G1 X97.769 Y112.083 E10.88583
G1 X97.219 Y112.023 E10.91343
G1 X96.63 Y111.969 E10.94294
G1 X96.222 Y111.938 E10.96336
G1 X95.68 Y111.905 E10.99045
G1 X94.831 Y111.873 E11.03283
G1 X94.28 Y111.869 E11.06032
G1 X93.45 Y111.892 E11.10175
G1 X92.9 Y111.932 E11.12926
G1 X92.211 Y112.007 E11.16384
G1 X91.581 Y112.103 E11.19563
G1 X90.683 Y112.279 E11.24128
G1 X90.186 Y112.392 E11.26671
G1 X89.629 Y112.532 E11.29537
G1 X89.213 Y112.642 E11.31683
G1 X88.663 Y112.8 E11.34538
G1 X87.763 Y113.077 E11.39236
G1 X87.27 Y113.245 E11.41835
G1 X86.558 Y113.503 E11.45613
G1 X85.901 Y113.774 E11.49159
G1 X85.081 Y114.164 E11.53689
G1 X84.282 Y114.608 E11.58249
G1 X83.806 Y114.846 E11.60904
G1 X83.201 Y115.013 E11.64035
G1 X82.747 Y115.018 E11.66301
G1 X82.233 Y114.911 E11.6892
G1 X81.786 Y114.705 E11.71375
G1 X81.429 Y114.409 E11.73689
G1 X81.154 Y113.956 E11.76333
G1 X81.14 Y113.891 E11.76665
G1 X81.032 Y113.413 E11.7911
G1 X81.011 Y112.762 E11.82359
G1 X81.022 Y112.343 E11.8445
G1 X81.044 Y111.774 E11.87291
G1 X81.098 Y110.948 E11.91421
G1 X81.185 Y110.154 E11.95406
G1 X81.284 Y109.576 E11.98331
G1 X81.425 Y108.959 E12.01489
G1 X81.585 Y108.439 E12.04203
G1 X81.774 Y107.916 E12.06978
G1 X82.053 Y107.279 E12.10447
G1 X82.312 Y106.768 E12.13305
G1 X82.572 Y106.311 E12.15929
G1 X82.894 Y105.83 E12.18816
G1 X82.906 Y105.812 E12.18924
G1 X83.204 Y105.428 E12.21349
G1 X83.6 Y105.008 E12.24229
G1 X83.959 Y104.71 E12.26557
G1 X84.478 Y104.365 E12.29666
G1 X84.975 Y104.121 E12.32428
G1 X84.995 Y104.114 E12.32534
G1 X85.496 Y103.922 E12.35211
G1 X85.515 Y103.914 E12.35314
G1 X86.203 Y103.687 E12.38928
G1 X86.831 Y103.468 E12.42246
G1 X87.544 Y103.155 E12.46131
G1 X88.145 Y102.753 E12.49738
G1 X88.612 Y102.2 E12.53349
M205 X10 Y10
G0 F6000 X88.263 Y101.993
M205 X8 Y8
;TYPE:WALL-OUTER
G1 F1200 X88.489 Y101.407 E12.56483
G1 X88.618 Y100.753 E12.59809
G1 X88.671 Y100.275 E12.62208
G1 X88.716 Y99.714 E12.65016
G1 X88.762 Y99.2 E12.6759
G1 X88.818 Y98.411 E12.71537
G1 X88.884 Y97.699 E12.75104
G1 X88.977 Y97.025 E12.78499
G1 X88.993 Y96.343 E12.81902
G1 X89.043 Y95.761 E12.84816
G1 X89.325 Y95.293 E12.87542
G1 X89.758 Y95.009 E12.90126
G1 X90.263 Y94.864 E12.92747
G1 X91.148 Y94.76 E12.97193
G1 X91.617 Y94.733 E12.99536
G1 X92.361 Y94.703 E13.03251
G1 X92.776 Y94.689 E13.05323
G1 X94.526 Y94.645 E13.14056
G1 X95.607 Y94.621 E13.19451
G1 X97.223 Y94.578 E13.27516
G1 X97.78 Y94.57 E13.30295
G1 X98.292 Y94.589 E13.32851
G1 X98.844 Y94.747 E13.35716
G1 X99.237 Y95.128 E13.38447
G1 X99.394 Y95.664 E13.41233
G1 X99.419 Y96.222 E13.4402
G1 X99.475 Y96.754 E13.46689
G1 X99.511 Y97.001 E13.47934
G1 X99.625 Y97.679 E13.51364
G1 X99.717 Y98.231 E13.54156
G1 X99.732 Y98.319 E13.54601
G1 X99.845 Y99.094 E13.58509
G1 X100.029 Y99.947 E13.62862
G1 X100.265 Y100.715 E13.6687
G1 X100.479 Y101.224 E13.69625
G1 X100.817 Y101.741 E13.72707
G1 X101.254 Y102.211 E13.75909
G1 X101.801 Y102.655 E13.79423
G1 X102.284 Y102.947 E13.82239
G1 X102.756 Y103.158 E13.84819
G1 X103.33 Y103.34 E13.87823
G1 X104.003 Y103.475 E13.91247
G1 X104.509 Y103.538 E13.93791
G1 X105.39 Y103.604 E13.98199
G1 X106.328 Y103.635 E14.02881
G1 X107.422 Y103.649 E14.0834
G1 X108.401 Y103.654 E14.13224
G1 X109.143 Y103.651 E14.16926
G1 X109.848 Y103.633 E14.20444
G1 X110.318 Y103.612 E14.22791
G1 X111.118 Y103.554 E14.26793
G1 X111.645 Y103.503 E14.29435
G1 X112.17 Y103.444 E14.3207
G1 X112.622 Y103.388 E14.34343
G1 X113.147 Y103.316 E14.36986
G1 X113.673 Y103.238 E14.39639
G1 X114.493 Y103.103 E14.43785
G1 X115.244 Y102.962 E14.47598
G1 X116.072 Y102.788 E14.51819
G1 X116.612 Y102.659 E14.54589
G1 X117.046 Y102.548 E14.56824
G1 X117.551 Y102.409 E14.59437
G1 X118.056 Y102.263 E14.62059
G1 X118.706 Y102.063 E14.65452
G1 X119.314 Y101.87 E14.68635
G1 X120.311 Y101.539 E14.73876
G1 X120.992 Y101.305 E14.77468
G1 X121.656 Y101.065 E14.80991
G1 X122.317 Y100.794 E14.84555
G1 X122.827 Y100.542 E14.87393
G1 X123.312 Y100.265 E14.90179
G1 X123.98 Y99.93 E14.93908
G1 X124.487 Y99.804 E14.96514
G1 X124.988 Y99.822 E14.99015
G1 X125.554 Y100.014 E15.01997
G1 X126.099 Y100.386 E15.05289
G1 X126.464 Y100.741 E15.07829
G1 X126.786 Y101.127 E15.10337
G1 X127.17 Y101.662 E15.13623
G1 X127.517 Y102.227 E15.16931
G1 X127.827 Y102.801 E15.20185
G1 X128.109 Y103.394 E15.23461
G1 X128.442 Y104.201 E15.27817
G1 X128.658 Y104.817 E15.31073
G1 X128.852 Y105.446 E15.34357
G1 X128.993 Y105.986 E15.37142
G1 X129.113 Y106.53 E15.39921
G1 X129.212 Y107.078 E15.42699
G1 X129.287 Y107.612 E15.45389
G1 X129.347 Y108.21 E15.48388
G1 X129.379 Y108.736 E15.51017
G1 X129.39 Y109.266 E15.53662
G1 X129.375 Y109.84 E15.56526
G1 X129.296 Y110.704 E15.60855
G1 X129.179 Y111.325 E15.64008
