;FLAVOR:Marlin
;TIME:3428
;Filament used: 2.16017m
;Layer height: 0.2
;MINX:80.2
;MINY:90.086
;MINZ:0.3
;MAXX:129.8
;MAXY:116.299
;MAXZ:22.175
;Generated with Cura_SteamEngine 4.11.0
M82 ;absolute extrusion mode
G21                                        ; metric values 
G90                                        ; absolute positioning 
M82                                        ; set extruder to absolute mode 
M107                                       ; start with the fan off 
M140 S60           ; Start heating the bed 
G4 S60                                     ; wait 1 minute 
M104 S210         ; start heating the hot end 
M190 S60           ; wait for bed 
M109 S210         ; wait for hotend 
M300 S1000 P500                            ; BEEP heating done 
G28 X0 Y10 Z0                              ; move X/Y to min endstops 
M420 S1                                    ; Enable leveling 
M420 Z2.0                                  ; Set leveling fading height to 2 mm 
G0 Z0.15                                   ; lift nozzle a bit 
G92 E0                                     ; zero the extruded length 
G1 X50 E25 F500                            ; Extrude 25mm of filament in a 5cm line. 
G92 E0                                     ; zero the extruded length again 
G1 E-2 F500                                ; Retract a little 
G1 X120 F4000                              ; Quickly wipe away from the filament line`
G92 E0
G92 E0
G1 F1500 E-6
;LAYER_COUNT:110
;LAYER:0
M106 S76.5
M205 X10 Y10
G1 F600 Z0.375
G0 F6000 X111.158 Y105.345 Z0.375
M205 X8 Y8
;TYPE:SKIRT
G1 F600 Z0.3
G1 F1500 E0
G1 F1200 X111.55 Y105.259 E0.02002
G1 X113.465 Y104.7 E0.11955
G1 X114.025 Y104.572 E0.14821
G1 X113.991 Y104.705 E0.15506
G1 X113.934 Y105.253 E0.18254
G1 X113.951 Y105.672 E0.20347
G1 X113.014 Y105.606 E0.25033
G1 X112.342 Y105.619 E0.28386
G1 X111.319 Y105.729 E0.33519
G1 X111.171 Y105.751 E0.34266
G1 X111.158 Y105.345 E0.36292
M205 X10 Y10
G0 F6000 X110.748 Y105.187
M205 X8 Y8
G1 F1200 X110.71 Y104.998 E0.37254
G1 X111.438 Y104.875 E0.40938
G1 X113.365 Y104.313 E0.50952
G1 X114.608 Y104.029 E0.57313
G1 X114.442 Y104.514 E0.59871
G1 X114.349 Y105.027 E0.62472
G1 X114.337 Y105.548 E0.65072
G1 X114.403 Y106.065 E0.67672
G1 X114.414 Y106.105 E0.67879
G1 X112.986 Y106.005 E0.75021
G1 X112.385 Y106.016 E0.7802
G1 X111.362 Y106.126 E0.83153
G1 X110.849 Y106.222 E0.85757
G1 X110.716 Y106.226 E0.8642
G1 X110.772 Y105.708 E0.8902
G1 X110.748 Y105.187 E0.91622
M205 X10 Y10
G0 F6000 X110.344 Y105.177
M205 X8 Y8
G1 F1200 X110.192 Y104.594 E0.94628
G1 X110.715 Y104.602 E0.97237
G1 X111.325 Y104.491 E1.0033
G1 X113.26 Y103.926 E1.10387
G1 X114.767 Y103.582 E1.18099
G1 X115.393 Y103.495 E1.21252
G1 X115.102 Y103.927 E1.23851
G1 X114.778 Y104.847 E1.28717
G1 X114.766 Y105.823 E1.33587
G1 X114.949 Y106.513 E1.37148
G1 X114.677 Y106.525 E1.38507
G1 X112.958 Y106.404 E1.47104
G1 X112.427 Y106.414 E1.49754
G1 X111.404 Y106.524 E1.54887
G1 X110.464 Y106.785 E1.59754
G1 X110.149 Y106.963 E1.61559
G1 X110.323 Y106.152 E1.65697
G1 X110.344 Y105.177 E1.70563
M205 X10 Y10
G0 F6000 X110.81 Y104.191
M205 X8 Y8
G1 F1200 X111.213 Y104.107 E1.72616
G1 X113.163 Y103.538 E1.82751
G1 X114.703 Y103.186 E1.90632
G1 X116.387 Y102.953 E1.99113
G1 X116.945 Y102.901 E2.01909
G1 X116.232 Y103.247 E2.05863
G1 X115.593 Y103.892 E2.10393
G1 X115.215 Y104.718 E2.14925
G1 X115.144 Y105.623 E2.19454
G1 X115.259 Y106.175 E2.22267
G1 X115.492 Y106.89 E2.26019
G1 X114.665 Y106.925 E2.30148
G1 X112.93 Y106.803 E2.38826
G1 X112.47 Y106.812 E2.41121
G1 X111.447 Y106.922 E2.46254
G1 X110.575 Y107.175 E2.50784
G1 X109.844 Y107.712 E2.55309
G1 X109.389 Y108.381 E2.59346
G1 X109.417 Y108.22 E2.60161
G1 X109.826 Y106.607 E2.68463
G1 X109.93 Y106.079 E2.71148
G1 X109.938 Y105.171 E2.75678
G1 X109.633 Y104.316 E2.80207
G1 X109.387 Y103.961 E2.82362
G1 X109.903 Y104.145 E2.85095
G1 X110.81 Y104.191 E2.89626
M205 X10 Y10
G0 F6000 X110.893 Y103.773
M205 X8 Y8
G1 F1200 X111.101 Y103.723 E2.90693
G1 X113.06 Y103.151 E3.00875
G1 X114.627 Y102.793 E3.08894
G1 X116.364 Y102.553 E3.17642
G1 X118.715 Y102.333 E3.29422
G1 X118.864 Y102.441 E3.30341
G1 X118.929 Y102.64 E3.31385
G1 X118.874 Y102.809 E3.32272
G1 X118.451 Y103.099 E3.3483
G1 X117.538 Y103.18 E3.39403
G1 X116.736 Y103.41 E3.43566
G1 X116.077 Y103.922 E3.47729
G1 X115.656 Y104.642 E3.5189
G1 X115.534 Y105.467 E3.56051
G1 X115.64 Y106.051 E3.59012
G1 X115.926 Y106.93 E3.63624
G1 X115.861 Y107.13 E3.64673
G1 X115.648 Y107.285 E3.65987
G1 X114.663 Y107.326 E3.70906
G1 X112.902 Y107.202 E3.79713
G1 X112.513 Y107.21 E3.81654
G1 X111.49 Y107.32 E3.86787
G1 X110.692 Y107.564 E3.90951
G1 X110.043 Y108.089 E3.95115
G1 X109.636 Y108.817 E3.99276
G1 X109.55 Y109.18 E4.01137
G1 X109.421 Y110.037 E4.05461
G1 X109.43 Y110.687 E4.08704
G1 X109.123 Y110.748 E4.10266
G1 X109.13 Y110.543 E4.11289
G1 X109.026 Y109.996 E4.14067
G1 X108.814 Y109.346 E4.17478
G1 X109.027 Y108.131 E4.23632
G1 X109.438 Y106.509 E4.3198
G1 X109.537 Y106.006 E4.34538
G1 X109.531 Y105.172 E4.38699
G1 X109.216 Y104.399 E4.42863
G1 X108.691 Y103.841 E4.46685
G1 X106.814 Y102.438 E4.58377
G1 X106.294 Y101.966 E4.6188
G1 X105.529 Y101.632 E4.66045
G1 X104.695 Y101.607 E4.70208
G1 X104.084 Y101.801 E4.73406
G1 X102.847 Y102.403 E4.80269
G1 X101.17 Y102.985 E4.89125
G1 X99.923 Y103.24 E4.95475
G1 X99.293 Y103.491 E4.98859
G1 X98.274 Y103.384 E5.03971
G1 X96.409 Y103.183 E5.13329
G1 X95.999 Y103.177 E5.15375
G1 X95.33 Y103.23 E5.18723
G1 X94.526 Y103.452 E5.22884
G1 X93.863 Y103.958 E5.27045
G1 X93.435 Y104.675 E5.31211
G1 X93.305 Y105.499 E5.35373
G1 X93.478 Y106.281 E5.39369
G1 X93.847 Y107.153 E5.44093
G1 X93.74 Y107.245 E5.44797
G1 X93.616 Y107.245 E5.45415
G1 X93.352 Y107.052 E5.47047
G1 X92.758 Y105.923 E5.53411
G1 X92.553 Y105.603 E5.55307
G1 X91.823 Y104.657 E5.61269
G1 X91.197 Y104.105 E5.65433
G1 X90.411 Y103.826 E5.69594
G1 X90.156 Y103.802 E5.70872
G1 X88.689 Y103.752 E5.78195
G1 X87.865 Y103.882 E5.82357
G1 X87.149 Y104.31 E5.86518
G1 X86.643 Y104.974 E5.90683
G1 X86.493 Y105.368 E5.92786
G1 X86.064 Y106.93 E6.00868
G1 X85.747 Y107.577 E6.04462
G1 X85.272 Y107.923 E6.07394
G1 X85.136 Y108.043 E6.08299
G1 X85.024 Y107.574 E6.10705
G1 X85.418 Y106.316 E6.17282
G1 X85.449 Y106.205 E6.17857
G1 X85.848 Y104.651 E6.25861
G1 X86.14 Y103.929 E6.29746
G1 X86.186 Y103.096 E6.33909
G1 X86.123 Y102.824 E6.35302
G1 X86.23 Y102.496 E6.37023
G1 X86.4 Y102.368 E6.38085
G1 X87.111 Y102.804 E6.42246
G1 X87.634 Y102.931 E6.44931
G1 X89.385 Y103.133 E6.53724
G1 X90.512 Y103.228 E6.59367
G1 X91.341 Y103.139 E6.63527
G1 X91.871 Y102.896 E6.66435
G1 X92.972 Y102.2 E6.72934
G1 X94.266 Y102.103 E6.79408
G1 X95.415 Y102.577 E6.85609
G1 X95.587 Y102.64 E6.86523
G1 X96.458 Y102.917 E6.91083
G1 X97.318 Y103.012 E6.95399
G1 X99.332 Y102.835 E7.05486
G1 X100.134 Y102.605 E7.09648
G1 X100.594 Y102.283 E7.1245
G1 X101.068 Y102.224 E7.14833
G1 X103.028 Y101.76 E7.24881
G1 X103.329 Y101.665 E7.26456
G1 X105.123 Y100.957 E7.36078
G1 X105.73 Y100.596 E7.39602
G1 X106.258 Y100.153 E7.4304
G1 X106.418 Y100.743 E7.4609
G1 X106.625 Y101.107 E7.48179
G1 X106.963 Y101.486 E7.50713
G1 X108.76 Y103.084 E7.6271
G1 X109.286 Y103.455 E7.65921
G1 X110.059 Y103.769 E7.70084
G1 X110.893 Y103.773 E7.74245
M205 X10 Y10
G1 F1500 E1.74245
G1 F600 Z0.375
G0 F6000 X110.541 Y101.803 Z0.375
M205 X8 Y8
G1 F600 Z0.3
G1 F1500 E7.74245
G1 F1200 X112.558 Y101.214 E7.84728
G1 X114.265 Y100.824 E7.93464
G1 X116.126 Y100.567 E8.02836
G1 X118.913 Y100.306 E8.16802
G1 X119.339 Y100.315 E8.18927
G1 X120.565 Y101.206 E8.26489
G1 X121.032 Y102.641 E8.34017
G1 X120.566 Y104.073 E8.4153
G1 X119.15 Y105.045 E8.50099
G1 X117.714 Y105.172 E8.57291
G1 X117.536 Y105.329 E8.58475
G1 X117.542 Y105.433 E8.58995
G1 X118.029 Y106.93 E8.66849
G1 X117.562 Y108.365 E8.74378
G1 X116.335 Y109.258 E8.81949
G1 X114.633 Y109.328 E8.90447
G1 X112.762 Y109.197 E8.99805
G1 X112.727 Y109.198 E8.99979
G1 X111.704 Y109.308 E9.05113
G1 X111.527 Y109.477 E9.06333
G1 X111.398 Y110.334 E9.10657
G1 X111.509 Y110.544 E9.11842
G1 X111.592 Y110.564 E9.12268
G1 X114.223 Y110.621 E9.25397
G1 X114.251 Y110.62 E9.25537
G1 X115.988 Y110.411 E9.34266
G1 X118.078 Y110.277 E9.44714
G1 X120.369 Y110.551 E9.56225
G1 X122.163 Y110.73 E9.6522
G1 X123.881 Y111.111 E9.74
G1 X123.922 Y111.116 E9.74206
G1 X124.985 Y111.129 E9.79509
G1 X125.583 Y111.564 E9.83199
G1 X125.81 Y112.262 E9.8686
G1 X125.585 Y112.955 E9.90496
G1 X124.863 Y113.428 E9.94802
G1 X123.084 Y113.103 E10.03824
G1 X123.055 Y113.1 E10.0397
G1 X121.074 Y113.03 E10.13859
G1 X119.022 Y113.016 E10.24097
G1 X117.837 Y112.882 E10.30046
G1 X117.778 Y112.884 E10.30341
G1 X116.477 Y113.128 E10.36945
G1 X116.315 Y113.302 E10.38131
G1 X116.324 Y113.387 E10.38557
G1 X116.557 Y114.104 E10.42319
G1 X116.181 Y115.028 E10.47295
G1 X115.49 Y115.531 E10.5156
G1 X114.03 Y115.269 E10.5896
G1 X111.836 Y114.345 E10.70837
G1 X110.688 Y113.136 E10.79155
G1 X110.627 Y113.093 E10.79527
G1 X109.755 Y112.688 E10.84324
G1 X109.567 Y112.698 E10.85263
G1 X108.073 Y113.604 E10.9398
G1 X105.957 Y113.784 E11.04575
G1 X104.892 Y113.103 E11.10882
G1 X104.619 Y112.266 E11.15274
G1 X105.009 Y111.304 E11.20453
G1 X105.735 Y110.775 E11.24934
G1 X106.917 Y110.876 E11.30853
G1 X107.119 Y110.752 E11.32035
G1 X107.124 Y110.615 E11.32719
G1 X106.758 Y109.493 E11.38607
G1 X107.067 Y107.724 E11.47566
G1 X107.503 Y106.005 E11.56414
G1 X107.554 Y105.516 E11.58867
G1 X107.494 Y105.443 E11.59338
G1 X105.496 Y103.949 E11.71785
G1 X105.078 Y103.581 E11.74563
G1 X104.959 Y103.599 E11.75164
G1 X103.617 Y104.252 E11.8261
G1 X101.698 Y104.918 E11.92744
G1 X100.324 Y105.199 E11.99741
G1 X100.246 Y105.233 E12.00165
G1 X99.804 Y105.555 E12.02893
G1 X98.066 Y105.373 E12.11612
G1 X96.194 Y105.171 E12.21005
G1 X96.157 Y105.171 E12.2119
G1 X95.488 Y105.224 E12.24538
G1 X95.309 Y105.379 E12.25719
G1 X95.32 Y105.501 E12.26331
G1 X95.981 Y107.061 E12.34783
G1 X95.543 Y108.405 E12.41836
G1 X94.389 Y109.245 E12.48957
G1 X92.967 Y109.245 E12.56051
G1 X91.798 Y108.394 E12.63265
G1 X90.988 Y106.854 E12.71946
G1 X90.969 Y106.825 E12.72119
G1 X90.239 Y105.879 E12.7808
G1 X90.088 Y105.801 E12.78928
G1 X88.621 Y105.751 E12.86251
G1 X88.421 Y105.898 E12.8749
G1 X87.941 Y107.645 E12.96529
G1 X87.326 Y108.901 E13.03506
G1 X86.448 Y109.54 E13.08923
G1 X86.377 Y109.637 E13.09523
G1 X86.141 Y110.33 E13.13175
G1 X85.359 Y110.898 E13.17997
G1 X84.401 Y110.898 E13.22777
G1 X83.629 Y110.337 E13.27538
G1 X82.951 Y107.502 E13.42081
G1 X83.512 Y105.709 E13.51454
G1 X83.958 Y103.97 E13.6041
G1 X84.187 Y103.479 E13.63113
G1 X84.196 Y103.332 E13.63848
G1 X84.025 Y102.807 E13.66603
G1 X84.49 Y101.381 E13.74086
G1 X85.914 Y100.065 E13.83759
G1 X86.847 Y100.065 E13.88414
G1 X87.751 Y100.893 E13.9453
G1 X87.863 Y100.944 E13.95144
G1 X89.62 Y101.146 E14.03967
G1 X90.679 Y101.235 E14.09269
G1 X90.803 Y101.205 E14.09906
G1 X92.327 Y100.242 E14.189
G1 X94.589 Y100.073 E14.30216
G1 X96.193 Y100.734 E14.38872
G1 X97.064 Y101.011 E14.43432
G1 X97.143 Y101.019 E14.43828
G1 X99.157 Y100.842 E14.53914
G1 X99.287 Y100.778 E14.54637
G1 X100.075 Y99.916 E14.60464
G1 X100.397 Y99.94 E14.62075
G1 X100.371 Y100.145 E14.63106
G1 X100.445 Y100.246 E14.63731
G1 X100.607 Y100.278 E14.64554
G1 X102.567 Y99.814 E14.74603
G1 X102.594 Y99.805 E14.74745
G1 X104.388 Y99.097 E14.84367
G1 X104.444 Y99.064 E14.84691
G1 X105.669 Y98.035 E14.92673
G1 X106.556 Y97.174 E14.9884
G1 X108.551 Y96.696 E15.09075
G1 X110.532 Y96.256 E15.19199
G1 X112.647 Y95.918 E15.29885
G1 X113.855 Y95.689 E15.36019
G1 X113.899 Y95.675 E15.36249
G1 X115.846 Y94.818 E15.46862
G1 X115.883 Y94.797 E15.47075
G1 X116.424 Y94.403 E15.50413
G1 X118.283 Y94.175 E15.59758
G1 X118.377 Y94.138 E15.60262
G1 X118.849 Y93.794 E15.63175
G1 X120.045 Y93.794 E15.69142
G1 X121.028 Y94.51 E15.7521
G1 X121.686 Y95.851 E15.82662
G1 X121.763 Y95.934 E15.83227
G1 X123.077 Y96.728 E15.90886
G1 X123.307 Y96.712 E15.92036
G1 X124.111 Y96.051 E15.97229
G1 X124.827 Y96.051 E16.00801
G1 X125.415 Y96.478 E16.04427
G1 X125.634 Y97.15 E16.07953
G1 X124.931 Y98.561 E16.15818
G1 X124.324 Y99.003 E16.19564
G1 X122.662 Y98.956 E16.27859
G1 X121.025 Y98.403 E16.36479
G1 X119.819 Y97.522 E16.43931
G1 X119.701 Y97.484 E16.44549
G1 X118.842 Y97.484 E16.48835
G1 X118.064 Y96.987 E16.5344
G1 X117.873 Y96.974 E16.54396
G1 X115.791 Y97.923 E16.65811
G1 X114.033 Y98.699 E16.75398
G1 X112.193 Y98.801 E16.84592
G1 X110.083 Y99.166 E16.95275
G1 X108.371 Y99.65 E17.04151
G1 X108.225 Y99.837 E17.05335
G1 X108.292 Y99.991 E17.06173
G1 X110.089 Y101.589 E17.1817
G1 X110.376 Y101.779 E17.19887
G1 X110.541 Y101.803 E17.20719
M205 X10 Y10
G1 F1500 E11.20719
G1 F600 Z0.375
G0 F6000 X107.158 Y102.195 Z0.375
M205 X8 Y8
G1 F600 Z0.3
G1 F1500 E17.20719
G1 F1200 X107.075 Y102.133 E17.21236
G1 X106.983 Y102.039 E17.21892
G1 X107.158 Y102.195 E17.23062
M205 X10 Y10
G0 F6000 X106.687 Y101.773
M205 X8 Y8
G1 F1200 X106.16 Y101.429 E17.26201
G1 X105.478 Y101.225 E17.29753
G1 X105.987 Y100.902 E17.3276
G1 X106.041 Y100.857 E17.33111
G1 X106.332 Y101.385 E17.36119
G1 X106.687 Y101.773 E17.38743
M205 X10 Y10
G1 F1500 E11.38743
G1 F600 Z0.375
G0 F6000 X107.964 Y105.495 Z0.375
M205 X8 Y8
G1 F600 Z0.3
G1 F1500 E17.38743
G1 F1200 X107.733 Y105.122 E17.40931
G1 X105.76 Y103.647 E17.53221
G1 X105.296 Y103.233 E17.56324
G1 X105.084 Y103.18 E17.57414
G1 X104.784 Y103.24 E17.5894
G1 X103.469 Y103.88 E17.66237
G1 X101.592 Y104.531 E17.76148
G1 X100.244 Y104.807 E17.83013
G1 X99.694 Y105.141 E17.86223
G1 X98.109 Y104.975 E17.94174
G1 X96.237 Y104.773 E18.03568
G1 X96.126 Y104.772 E18.04122
G1 X95.457 Y104.825 E18.0747
G1 X95.069 Y105.009 E18.09612
G1 X94.904 Y105.406 E18.11757
G1 X94.952 Y105.657 E18.13032
G1 X95.554 Y107.078 E18.20731
G1 X95.202 Y108.159 E18.26403
G1 X94.26 Y108.845 E18.32217
G1 X93.096 Y108.845 E18.38024
G1 X92.109 Y108.126 E18.44116
G1 X91.342 Y106.668 E18.52335
G1 X91.286 Y106.58 E18.52856
G1 X90.556 Y105.634 E18.58817
G1 X90.394 Y105.489 E18.59902
G1 X90.101 Y105.401 E18.61428
G1 X88.634 Y105.351 E18.68751
G1 X88.229 Y105.491 E18.70889
G1 X88.035 Y105.792 E18.72676
G1 X87.565 Y107.505 E18.81538
G1 X87.01 Y108.637 E18.87828
G1 X86.213 Y109.217 E18.92745
G1 X85.998 Y109.508 E18.9455
G1 X85.802 Y110.082 E18.97576
G1 X85.23 Y110.498 E19.01105
G1 X84.53 Y110.498 E19.04597
G1 X83.984 Y110.101 E19.07965
G1 X83.365 Y107.517 E19.21222
G1 X83.899 Y105.808 E19.30154
G1 X84.334 Y104.11 E19.38899
G1 X84.55 Y103.648 E19.41444
G1 X84.577 Y103.208 E19.43643
G1 X84.446 Y102.806 E19.45753
G1 X84.837 Y101.604 E19.52059
G1 X86.07 Y100.465 E19.60433
G1 X86.691 Y100.465 E19.63531
G1 X87.481 Y101.188 E19.68874
G1 X87.817 Y101.341 E19.70716
G1 X89.587 Y101.545 E19.79605
G1 X90.646 Y101.634 E19.84907
G1 X91.017 Y101.543 E19.86813
G1 X92.456 Y100.634 E19.95304
G1 X94.523 Y100.479 E20.05646
G1 X96.025 Y101.098 E20.1375
G1 X96.072 Y101.115 E20.14
G1 X96.943 Y101.392 E20.1856
G1 X97.178 Y101.418 E20.19739
G1 X99.192 Y101.241 E20.29826
G1 X99.582 Y101.048 E20.31997
G1 X100.11 Y100.47 E20.35903
G1 X100.312 Y100.629 E20.37185
G1 X100.699 Y100.667 E20.39125
G1 X102.659 Y100.203 E20.49174
G1 X102.741 Y100.177 E20.49603
G1 X104.535 Y99.469 E20.59225
G1 X104.701 Y99.371 E20.60187
G1 X105.916 Y98.351 E20.68101
G1 X106.757 Y97.538 E20.73937
G1 X108.644 Y97.086 E20.83618
G1 X110.617 Y96.647 E20.93702
G1 X112.722 Y96.311 E21.04337
G1 X113.93 Y96.082 E21.10471
G1 X114.06 Y96.041 E21.11151
G1 X116.007 Y95.184 E21.21764
G1 X116.118 Y95.12 E21.22403
G1 X116.575 Y94.787 E21.25224
G1 X118.332 Y94.572 E21.34055
G1 X118.978 Y94.194 E21.37789
G1 X119.916 Y94.194 E21.42469
G1 X120.712 Y94.774 E21.47383
G1 X121.327 Y96.027 E21.54346
G1 X121.556 Y96.277 E21.56038
G1 X122.87 Y97.071 E21.63697
G1 X123.292 Y97.146 E21.65835
G1 X123.561 Y97.021 E21.67315
G1 X124.255 Y96.451 E21.71796
G1 X124.698 Y96.451 E21.74006
G1 X125.074 Y96.724 E21.76324
G1 X125.202 Y97.119 E21.78396
G1 X124.617 Y98.296 E21.84953
G1 X124.2 Y98.599 E21.87525
G1 X122.733 Y98.557 E21.94847
G1 X121.211 Y98.043 E22.02861
G1 X120.055 Y97.199 E22.10002
G1 X119.701 Y97.084 E22.11859
